(Projekt arc)
(Erstellt mit Estlcam Version 11 Build 11,245)
(Laufzeit ca. 00:00:01 Stunden)

(Benoetigte Werkzeuge:)
(FSAC031.0200.08)

G90

MSG "Werkzeug: #10 FSAC031.0200.08"
T10 M06
M03 S30000
G00 Z5.0000


(Nr. 1: Gravur 1)
G00 X-2.5696 Y5.0431
G00 Z0.5000
G01 Z0.0000 F800 S30000
G03 X-4.6258 Y3.2616 Z-0.5000 I2.5696 J-5.0431
G02 X-2.5696 Y5.0431 Z-1.0000 I4.6258 J-3.2616
G03 X-3.0827 Y-4.7469 I2.5696 J-5.0431 F1600
G03 X5.6522 Y-0.2962 I3.0827 J4.7469
G03 X-2.5696 Y5.0431 I-5.6522 J0.2962
G00 Z5.0000

M05
G28
M30
