(Projekt circle)
(Erstellt mit Estlcam Version 11 Build 11,245)
(Laufzeit ca. 00:00:01 Stunden)

(Benoetigte Werkzeuge:)
(FSAC031.0200.08)

G90

MSG "Werkzeug: #10 FSAC031.0200.08"
T10 M06
M03 S30000
G00 Z5.0000


(Nr. 1: Gravur 1)
G00 X-4.8259 Y2.9573
G00 Z0.5000
G01 Z0.0000 F800 S30000
G03 X-5.6483 Y0.3640 Z-0.5000 I4.8259 J-2.9573
G02 X-4.8259 Y2.9573 Z-1.0000 I5.6483 J-0.3640
G03 X-0.1482 Y-5.6581 I4.8259 J-2.9573 F1600
G03 X4.9741 Y2.7007 I0.1482 J5.6581
G03 X-4.8259 Y2.9573 I-4.9741 J-2.7007
G00 Z5.0000

M05
G28
M30
