(Projekt offsetarc)
(Erstellt mit Estlcam Version 11 Build 11,245)
(Laufzeit ca. 00:00:01 Stunden)

(Benoetigte Werkzeuge:)
(FSAC031.0200.08)

G90

MSG "Werkzeug: #10 FSAC031.0200.08"
T10 M06
M03 S30000
G00 Z5.0000


(Nr. 1: Gravur 1)
G00 X-6.1660 Y12.1574
G00 Z0.5000
G01 Z0.0000 F800 S30000
G03 X-8.3556 Y10.5427 Z-0.5000 I2.1660 J-5.2292
G02 X-6.1660 Y12.1574 Z-1.0000 I4.3556 J-3.6145
G03 X-7.4456 Y2.4378 I2.1660 J-5.2292 F1600
G03 X1.6116 Y6.1894 I3.4456 J4.4904
G03 X-6.1660 Y12.1574 I-5.6116 J0.7388
G00 Z5.0000

M05
G28
M30
