(Projekt offsetarc)
(Erstellt mit Estlcam Version 11 Build 11,245)
(Laufzeit ca. 00:00:01 Stunden)

(Benoetigte Werkzeuge:)
(FSAC031.0200.08)

G90

MSG "Werkzeug: #10 FSAC031.0200.08"
T10 M06
M03 S30000
G00 Z5.0000


(Nr. 1: Gravur 1)
G00 X-4.8854 Y12.5185
G00 Z0.5000
G01 Z0.0000 F800 S30000
G03 X-7.3915 Y11.4596 Z-0.5000 I0.8854 J-5.5903
G02 X-4.8854 Y12.5185 Z-1.0000 I3.3915 J-4.5314
G03 X-8.3986 Y3.3662 I0.8854 J-5.5903 F1600
G03 X1.2841 Y4.8998 I4.3986 J3.5620
G03 X-4.8854 Y12.5185 I-5.2841 J2.0284
G00 Z5.0000

M05
G28
M30
