(Projekt elipse)
(Erstellt mit Estlcam Version 11 Build 11,245)
(Laufzeit ca. 00:01:02 Stunden)

(Benoetigte Werkzeuge:)
(FSAC031.0200.08)

G90

MSG "Werkzeug: #10 FSAC031.0200.08"
T10 M06
M03 S30000
G00 Z5.0000


(Nr. 1: Gravur 1)
G00 X-150.0747 Y211.5837
G00 Z0.5000
G01 Z0.0000 F800 S30000
G03 X-151.3952 Y209.1744 Z-0.5000 I287.7554 J-159.2804
G02 X-150.0747 Y211.5837 Z-1.0000 I289.0759 J-156.8711
G03 X-169.0422 Y171.0233 I287.7554 J-159.2804 F1600
G03 X-189.1844 Y103.8680 I401.9529 J-157.1578
G03 X-198.7906 Y35.1778 I470.5450 J-100.8213
G03 X-194.0692 Y-77.5708 I509.0704 J-35.1559
G03 X-178.7472 Y-143.5012 I450.5150 J69.9528
G03 X-163.6611 Y-184.0744 I399.9615 J125.6237
G03 X-136.3071 Y-234.1521 I294.2007 J128.1922
G03 X-108.0087 Y-269.4114 I224.0922 J150.8665
G03 X-71.2389 Y-299.0003 I134.0271 J128.9127
G03 X-35.2119 Y-314.9652 I80.0182 J131.9395
G03 X42.9580 Y-312.4425 I35.2288 J120.7476
G03 X80.3077 Y-293.0756 I-52.3426 J146.6434
G03 X113.2349 Y-263.7678 I-107.6852 J154.1340
G03 X144.9752 Y-220.4527 I-204.4207 J183.0820
G03 X169.0422 Y-171.0233 I-281.0808 J167.4309
G03 X189.1844 Y-103.8680 I-401.9529 J157.1578
G03 X198.7906 Y-35.1778 I-470.5450 J100.8213
G03 X194.0692 Y77.5708 I-509.0704 J35.1559
G03 X178.7472 Y143.5012 I-450.5150 J-69.9528
G03 X163.6611 Y184.0744 I-399.9615 J-125.6237
G03 X136.3071 Y234.1521 I-294.2007 J-128.1922
G03 X108.0087 Y269.4114 I-224.0922 J-150.8665
G03 X71.2389 Y299.0003 I-134.0271 J-128.9127
G03 X35.2119 Y314.9652 I-80.0182 J-131.9395
G03 X-42.9580 Y312.4425 I-35.2288 J-120.7476
G03 X-80.3077 Y293.0756 I52.3426 J-146.6434
G03 X-113.2349 Y263.7678 I107.6852 J-154.1340
G03 X-144.9752 Y220.4527 I204.4207 J-183.0820
G03 X-150.0747 Y211.5837 I278.6901 J-166.1387
G00 Z5.0000

M05
G28
M30
