(Projekt SeifenschaleV13_8_innen)
(Erstellt mit Estlcam Version 11 Build 11,245)
(Laufzeit ca. 00:03:05 Stunden)

(Benoetigte Werkzeuge:)
(FSAC041.0400.11)
(Gewinde M4-M5)
(Gravur90_0.5)

G90

MSG "Werkzeug: #11 FSAC041.0400.11"
T11 M06
M03 S26000
G00 Z5.0000


(Nr. 4: Falz_klemmer)
G00 Z25
G00 X-13.9561 Y43.7478
G00 Z0.5000
G01 X-12.9561 F1500
G02 X-14.4561 Y42.8818 Z0.0833 I-1.0000 J0.0000
G02 Y44.6138 Z-0.3333 I0.5000 J0.8660
G02 X-12.9561 Y43.7478 Z-0.7500 I0.5000 J-0.8660
G02 X-14.4561 Y42.8818 Z-1.1667 I-1.0000 J0.0000
G02 Y44.6138 Z-1.5833 I0.5000 J0.8660
G02 X-12.9561 Y43.7478 Z-2.0000 I0.5000 J-0.8660
G02 X-14.4561 Y42.8818 I-1.0000 J0.0000
G02 Y44.6138 I0.5000 J0.8660
G02 X-12.9561 Y43.7478 I0.5000 J-0.8660
G01 X-13.9561 F3000
G01 X-14.0100 Y43.8018
G01 X-13.9380 Y43.8378
G03 X-8.5380 Y43.2618 I3.4224 J6.4843
G01 X-7.6740 Y42.3978
G01 X4.4940 Y32.2098
G02 X2.4420 Y30.1578 I-1.0957 J-0.9563
G01 X-12.1740 Y42.5418
G01 X-13.3260 Y43.2618
G01 X-13.9020 Y43.6938
G01 X-13.9561 Y43.7478
G01 X-15.3046 Y42.4732
G02 X-17.6460 Y45.3498 I6.6881 J7.8350
G02 X-16.1340 Y49.5978 I3.6538 J1.0926
G01 X-16.0260
G03 X-7.8180 Y45.5298 I5.5060 J0.7948
G01 X-7.4580 Y44.7738
G01 X-6.6300 Y43.9458
G01 X5.6460 Y33.6498
G02 X1.1820 Y28.8258 I-2.2423 J-2.4025
G01 X-13.4700 Y41.2098
G02 X-15.3046 Y42.4732 I4.7341 J8.8380
G01 X-12.9531 Y46.4842
G03 X-5.9400 Y50.2659 I2.4149 J3.9154
G03 X-12.7216 Y54.4486 I-4.5983 J0.1337
G03 X-12.9531 Y46.4842 I2.1834 J-4.0490
G00 Z5.0000
G00 X-13.2153 Y40.9944
G00 Z-1.5000
G01 Z-2.0000 F1500
G01 X-13.8088 Y40.2921 F3000
G01 X-17.2319 Y43.1769
G02 X-17.7385 Y49.1130 I2.6727 J3.2177
G01 X-14.1532 Y53.3673
G02 X-6.7740 Y47.4884 I3.6252 J-3.0203
G03 X-6.3246 Y44.9699 I1.7383 J-0.9891
G01 X6.1315 Y34.4726
G02 X0.7183 Y28.0494 I-2.6968 J-3.2198
G01 X-13.8088 Y40.2921
G00 Z5.0000


(Nr. 11: klemmer)
G00 X-16.1854 Y42.8238 Z5.0000
G00 Z0.5000
G01 Z0.0000 F1500 S26000
G03 X-14.7344 Y41.1567 Z-0.4036 I6.3682 J4.0774
G01 X-6.4932 Y34.2114 Z-2.3650
G01 X-14.7344 Y41.1567 Z-4.3264
G02 X-16.1854 Y42.8238 Z-4.7300 I4.9173 J5.7445
G03 X-14.7344 Y41.1567 I6.3682 J4.0774 F3000
G01 X0.7794 Y28.0824
G03 X6.1288 Y34.4286 I2.6474 J3.1961
G01 X-7.8715 Y46.2306
G01 X-7.8970 Y46.2536
G01 X-7.8989 Y46.2638
G03 X-6.6486 Y47.7941 I-12.8313 J11.7595
G03 X-14.1188 Y53.4412 I-3.9023 J2.6024
G01 X-15.6297 Y51.6483
G03 X-16.1854 Y42.8238 I5.7553 J-4.7921
G00 Z5.0000


(Nr. 12: klemmer schlicht)
G00 X-16.1854 Y42.8238 Z5.0000
G00 Z0.5000
G01 Z-4.7300 F1500 S30000
G01 X-16.1026 Y42.8799 F2200
G03 X-14.6685 Y41.2319 I6.2833 J4.0197
G01 X0.8426 Y28.1599
G03 X6.0631 Y34.3532 I2.5843 J3.1185
G01 X-7.9372 Y46.1552
G02 X-7.9539 Y46.3559 I0.0583 J0.1059
G03 X-6.7318 Y47.8496 I-8.6691 J8.3396
G03 X-14.0432 Y53.3757 I-3.8191 J2.5469
G01 X-15.5520 Y51.5854
G03 X-16.1026 Y42.8799 I5.6775 J-4.7292
G01 X-16.1854 Y42.8238
G00 Z0.0000
G00 Z5.0000


(Nr. 7: Ausschnitt 19)
G00 X-90.6734 Y19.3906 Z5.0000
G00 Z0.5000
G01 Z0.0000 F1500 S26000
G01 X-92.6264 Y21.7080 Z-0.5515
G01 X-92.6114 Y21.6889 Z-0.5560
G01 X-92.6417 Y21.7398 Z-0.5668
G01 X-92.6223 Y21.7565 Z-0.5714
G01 X-89.6029 Y24.3010 Z-1.2900
G01 X-92.6223 Y21.7565 Z-2.0086
G01 X-92.6417 Y21.7398 Z-2.0132
G01 X-92.6114 Y21.6889 Z-2.0240
G01 X-92.6264 Y21.7080 Z-2.0285
G01 X-90.6734 Y19.3906 Z-2.5800
G01 X-92.6264 Y21.7080 F3000
G01 X-92.6114 Y21.6889
G01 X-92.6417 Y21.7398
G01 X-92.6223 Y21.7565
G01 X-68.7873 Y41.8434
G01 X-68.8049 Y41.8286
G01 X-79.1798 Y33.0851
G03 X-76.7074 Y28.6353 I1.7009 J-1.9667
G03 X-80.8087 Y27.3359 I24.2990 J-83.8167
G03 X-82.0350 Y26.6256 I1.4503 J-3.9177
G01 X-90.6250 Y19.3864
G01 X-90.6059 Y19.4015
G01 X-90.6567 Y19.3712
G01 X-90.6734 Y19.3906
G00 Z5.0000


(Nr. 8: Ausschnitt 19)
G00 X-90.6734 Y19.3906 Z5.0000
G00 Z0.5000
G01 Z-2.5800 F1500 S30000
G01 X-90.7488 Y19.3249 F3000
G01 X-92.7040 Y21.6448
G02 X-92.6880 Y21.8319 I0.0679 J0.0884
G01 X-68.8681 Y41.9061
G02 X-68.7392 Y41.7532 I0.0857 J-0.0585
G01 X-79.1142 Y33.0097
G03 X-76.6815 Y28.7365 I1.6439 J-1.8932
G02 X-76.6976 Y28.5335 I-0.0185 J-0.1007
G01 X-80.6060 Y27.2997
G03 X-81.9715 Y26.5483 I1.2438 J-3.8769
G01 X-90.5618 Y19.3089
G02 X-90.7488 Y19.3249 I-0.0884 J0.0679
G01 X-90.6734 Y19.3906
G00 Z0.0000
G00 Z5.0000


(Nr. 7: Ausschnitt 22)
G00 X-109.9955 Y160.8423 Z5.0000
G00 Z0.5000
G01 X-108.9955 F1500
G02 X-110.4955 Y159.9762 Z0.1500 I-1.0000 J0.0000
G02 Y161.7083 Z-0.2000 I0.5000 J0.8660
G02 X-108.9955 Y160.8423 Z-0.5500 I0.5000 J-0.8660
G02 X-110.4955 Y159.9762 I-1.0000 J0.0000
G02 Y161.7083 I0.5000 J0.8660
G02 X-108.9955 Y160.8423 I0.5000 J-0.8660
G01 X-109.9955 F3000
G01 X-110.4267 Y160.3751
G01 X-116.4387 Y170.1671
G01 X-116.6547 Y170.9951
G01 Y171.6431
G02 X-113.8467 Y174.2711 I3.5046 J-0.9305
G01 X-113.0187 Y172.9391
G01 X-112.9827 Y166.5671
G03 X-112.1826 Y164.5281 I5.5773 J1.0119
G03 X-108.9867 Y161.7791 I5.9231 J3.6540
G01 Y161.6711
G01 X-109.5627 Y161.3111
G01 X-109.9955 Y160.8423
G01 X-109.3257 Y160.2235
G03 X-109.5690 Y157.2206 I1.9880 J-1.6723
G01 X-102.4861 Y145.6769
G01 X-102.4620 Y145.6361
G01 X-102.4741 Y145.6557
G01 X-106.6236 Y152.4195
G01 X-106.6188 Y152.4099
G01 X-106.6285 Y152.4293
G01 X-107.1813 Y153.3285
G01 X-117.1060 Y169.5061
G02 X-116.0052 Y174.1013 I2.7973 J1.7593
G01 X-114.0814 Y175.2815
G02 X-113.2262 Y175.0766 I0.3338 J-0.4941
G01 X-112.0417 Y173.1459
G01 X-112.0296 Y173.1251
G01 X-112.0292 Y173.1008
G01 X-112.0640 Y167.3197
G03 X-110.3501 Y163.9403 I4.1934 J0.0025
G01 X-105.8594 Y160.6943
G01 X-105.8215 Y160.6659
G03 X-109.3257 Y160.2235 I-1.5134 J-2.1118
G00 Z5.0000


(Nr. 8: Ausschnitt 22)
G00 X-102.4620 Y145.6361 Z5.0000
G00 Z0.5000
G01 Z-0.5500 F1500 S30000
G01 X-102.4728 Y145.5289 F2200
G02 X-102.5585 Y145.6020 I0.0255 J0.1166
G01 X-106.7111 Y152.3709
G03 X-107.2642 Y153.2725 I-4.7917 J-2.3192
G01 X-117.1923 Y169.4555
G02 X-116.0592 Y174.1855 I2.8833 J1.8100
G01 X-114.1325 Y175.3675
G02 X-113.1417 Y175.1301 I0.3850 J-0.5796
G01 X-111.9559 Y173.1972
G02 X-111.9292 Y173.1014 I-0.1067 J-0.0814
G01 X-111.9640 Y167.3206
G03 X-110.2903 Y164.0205 I4.0937 J0.0017
G01 X-105.7802 Y160.7595
G02 X-105.8649 Y160.5755 I-0.0330 J-0.0963
G03 X-109.4830 Y157.2716 I-1.4706 J-2.0226
G01 X-102.3880 Y145.7066
G02 X-102.4728 Y145.5289 I-0.0697 J-0.0758
G01 X-102.4620 Y145.6361
G00 Z0.0000
G00 Z5.0000

(Koordinaten nach Oben verschieben)
G00 Z25.0000
G00 X0 Y0
G92 X0 Y-217
G00 Y0

(Nr. 4: Falz_klemmer)
G00 Z25
G00 X-13.9561 Y43.7478
G00 Z0.5000
G01 X-12.9561 F1500
G02 X-14.4561 Y42.8818 Z0.0833 I-1.0000 J0.0000
G02 Y44.6138 Z-0.3333 I0.5000 J0.8660
G02 X-12.9561 Y43.7478 Z-0.7500 I0.5000 J-0.8660
G02 X-14.4561 Y42.8818 Z-1.1667 I-1.0000 J0.0000
G02 Y44.6138 Z-1.5833 I0.5000 J0.8660
G02 X-12.9561 Y43.7478 Z-2.0000 I0.5000 J-0.8660
G02 X-14.4561 Y42.8818 I-1.0000 J0.0000
G02 Y44.6138 I0.5000 J0.8660
G02 X-12.9561 Y43.7478 I0.5000 J-0.8660
G01 X-13.9561 F3000
G01 X-14.0100 Y43.8018
G01 X-13.9380 Y43.8378
G03 X-8.5380 Y43.2618 I3.4224 J6.4843
G01 X-7.6740 Y42.3978
G01 X4.4940 Y32.2098
G02 X2.4420 Y30.1578 I-1.0957 J-0.9563
G01 X-12.1740 Y42.5418
G01 X-13.3260 Y43.2618
G01 X-13.9020 Y43.6938
G01 X-13.9561 Y43.7478
G01 X-15.3046 Y42.4732
G02 X-17.6460 Y45.3498 I6.6881 J7.8350
G02 X-16.1340 Y49.5978 I3.6538 J1.0926
G01 X-16.0260
G03 X-7.8180 Y45.5298 I5.5060 J0.7948
G01 X-7.4580 Y44.7738
G01 X-6.6300 Y43.9458
G01 X5.6460 Y33.6498
G02 X1.1820 Y28.8258 I-2.2423 J-2.4025
G01 X-13.4700 Y41.2098
G02 X-15.3046 Y42.4732 I4.7341 J8.8380
G01 X-12.9531 Y46.4842
G03 X-5.9400 Y50.2659 I2.4149 J3.9154
G03 X-12.7216 Y54.4486 I-4.5983 J0.1337
G03 X-12.9531 Y46.4842 I2.1834 J-4.0490
G00 Z5.0000
G00 X-13.2153 Y40.9944
G00 Z-1.5000
G01 Z-2.0000 F1500
G01 X-13.8088 Y40.2921 F3000
G01 X-17.2319 Y43.1769
G02 X-17.7385 Y49.1130 I2.6727 J3.2177
G01 X-14.1532 Y53.3673
G02 X-6.7740 Y47.4884 I3.6252 J-3.0203
G03 X-6.3246 Y44.9699 I1.7383 J-0.9891
G01 X6.1315 Y34.4726
G02 X0.7183 Y28.0494 I-2.6968 J-3.2198
G01 X-13.8088 Y40.2921
G00 Z5.0000


(Nr. 11: klemmer)
G00 X-16.1854 Y42.8238 Z5.0000
G00 Z0.5000
G01 Z0.0000 F1500 S26000
G03 X-14.7344 Y41.1567 Z-0.4036 I6.3682 J4.0774
G01 X-6.4932 Y34.2114 Z-2.3650
G01 X-14.7344 Y41.1567 Z-4.3264
G02 X-16.1854 Y42.8238 Z-4.7300 I4.9173 J5.7445
G03 X-14.7344 Y41.1567 I6.3682 J4.0774 F3000
G01 X0.7794 Y28.0824
G03 X6.1288 Y34.4286 I2.6474 J3.1961
G01 X-7.8715 Y46.2306
G01 X-7.8970 Y46.2536
G01 X-7.8989 Y46.2638
G03 X-6.6486 Y47.7941 I-12.8313 J11.7595
G03 X-14.1188 Y53.4412 I-3.9023 J2.6024
G01 X-15.6297 Y51.6483
G03 X-16.1854 Y42.8238 I5.7553 J-4.7921
G00 Z5.0000


(Nr. 12: klemmer schlicht)
G00 X-16.1854 Y42.8238 Z5.0000
G00 Z0.5000
G01 Z-4.7300 F1500 S30000
G01 X-16.1026 Y42.8799 F2200
G03 X-14.6685 Y41.2319 I6.2833 J4.0197
G01 X0.8426 Y28.1599
G03 X6.0631 Y34.3532 I2.5843 J3.1185
G01 X-7.9372 Y46.1552
G02 X-7.9539 Y46.3559 I0.0583 J0.1059
G03 X-6.7318 Y47.8496 I-8.6691 J8.3396
G03 X-14.0432 Y53.3757 I-3.8191 J2.5469
G01 X-15.5520 Y51.5854
G03 X-16.1026 Y42.8799 I5.6775 J-4.7292
G01 X-16.1854 Y42.8238
G00 Z0.0000
G00 Z5.0000


(Nr. 7: Ausschnitt 19)
G00 X-90.6734 Y19.3906 Z5.0000
G00 Z0.5000
G01 Z0.0000 F1500 S26000
G01 X-92.6264 Y21.7080 Z-0.5515
G01 X-92.6114 Y21.6889 Z-0.5560
G01 X-92.6417 Y21.7398 Z-0.5668
G01 X-92.6223 Y21.7565 Z-0.5714
G01 X-89.6029 Y24.3010 Z-1.2900
G01 X-92.6223 Y21.7565 Z-2.0086
G01 X-92.6417 Y21.7398 Z-2.0132
G01 X-92.6114 Y21.6889 Z-2.0240
G01 X-92.6264 Y21.7080 Z-2.0285
G01 X-90.6734 Y19.3906 Z-2.5800
G01 X-92.6264 Y21.7080 F3000
G01 X-92.6114 Y21.6889
G01 X-92.6417 Y21.7398
G01 X-92.6223 Y21.7565
G01 X-68.7873 Y41.8434
G01 X-68.8049 Y41.8286
G01 X-79.1798 Y33.0851
G03 X-76.7074 Y28.6353 I1.7009 J-1.9667
G03 X-80.8087 Y27.3359 I24.2990 J-83.8167
G03 X-82.0350 Y26.6256 I1.4503 J-3.9177
G01 X-90.6250 Y19.3864
G01 X-90.6059 Y19.4015
G01 X-90.6567 Y19.3712
G01 X-90.6734 Y19.3906
G00 Z5.0000


(Nr. 8: Ausschnitt 19)
G00 X-90.6734 Y19.3906 Z5.0000
G00 Z0.5000
G01 Z-2.5800 F1500 S30000
G01 X-90.7488 Y19.3249 F3000
G01 X-92.7040 Y21.6448
G02 X-92.6880 Y21.8319 I0.0679 J0.0884
G01 X-68.8681 Y41.9061
G02 X-68.7392 Y41.7532 I0.0857 J-0.0585
G01 X-79.1142 Y33.0097
G03 X-76.6815 Y28.7365 I1.6439 J-1.8932
G02 X-76.6976 Y28.5335 I-0.0185 J-0.1007
G01 X-80.6060 Y27.2997
G03 X-81.9715 Y26.5483 I1.2438 J-3.8769
G01 X-90.5618 Y19.3089
G02 X-90.7488 Y19.3249 I-0.0884 J0.0679
G01 X-90.6734 Y19.3906
G00 Z0.0000
G00 Z5.0000


(Nr. 7: Ausschnitt 22)
G00 X-109.9955 Y160.8423 Z5.0000
G00 Z0.5000
G01 X-108.9955 F1500
G02 X-110.4955 Y159.9762 Z0.1500 I-1.0000 J0.0000
G02 Y161.7083 Z-0.2000 I0.5000 J0.8660
G02 X-108.9955 Y160.8423 Z-0.5500 I0.5000 J-0.8660
G02 X-110.4955 Y159.9762 I-1.0000 J0.0000
G02 Y161.7083 I0.5000 J0.8660
G02 X-108.9955 Y160.8423 I0.5000 J-0.8660
G01 X-109.9955 F3000
G01 X-110.4267 Y160.3751
G01 X-116.4387 Y170.1671
G01 X-116.6547 Y170.9951
G01 Y171.6431
G02 X-113.8467 Y174.2711 I3.5046 J-0.9305
G01 X-113.0187 Y172.9391
G01 X-112.9827 Y166.5671
G03 X-112.1826 Y164.5281 I5.5773 J1.0119
G03 X-108.9867 Y161.7791 I5.9231 J3.6540
G01 Y161.6711
G01 X-109.5627 Y161.3111
G01 X-109.9955 Y160.8423
G01 X-109.3257 Y160.2235
G03 X-109.5690 Y157.2206 I1.9880 J-1.6723
G01 X-102.4861 Y145.6769
G01 X-102.4620 Y145.6361
G01 X-102.4741 Y145.6557
G01 X-106.6236 Y152.4195
G01 X-106.6188 Y152.4099
G01 X-106.6285 Y152.4293
G01 X-107.1813 Y153.3285
G01 X-117.1060 Y169.5061
G02 X-116.0052 Y174.1013 I2.7973 J1.7593
G01 X-114.0814 Y175.2815
G02 X-113.2262 Y175.0766 I0.3338 J-0.4941
G01 X-112.0417 Y173.1459
G01 X-112.0296 Y173.1251
G01 X-112.0292 Y173.1008
G01 X-112.0640 Y167.3197
G03 X-110.3501 Y163.9403 I4.1934 J0.0025
G01 X-105.8594 Y160.6943
G01 X-105.8215 Y160.6659
G03 X-109.3257 Y160.2235 I-1.5134 J-2.1118
G00 Z5.0000


(Nr. 8: Ausschnitt 22)
G00 X-102.4620 Y145.6361 Z5.0000
G00 Z0.5000
G01 Z-0.5500 F1500 S30000
G01 X-102.4728 Y145.5289 F2200
G02 X-102.5585 Y145.6020 I0.0255 J0.1166
G01 X-106.7111 Y152.3709
G03 X-107.2642 Y153.2725 I-4.7917 J-2.3192
G01 X-117.1923 Y169.4555
G02 X-116.0592 Y174.1855 I2.8833 J1.8100
G01 X-114.1325 Y175.3675
G02 X-113.1417 Y175.1301 I0.3850 J-0.5796
G01 X-111.9559 Y173.1972
G02 X-111.9292 Y173.1014 I-0.1067 J-0.0814
G01 X-111.9640 Y167.3206
G03 X-110.2903 Y164.0205 I4.0937 J0.0017
G01 X-105.7802 Y160.7595
G02 X-105.8649 Y160.5755 I-0.0330 J-0.0963
G03 X-109.4830 Y157.2716 I-1.4706 J-2.0226
G01 X-102.3880 Y145.7066
G02 X-102.4728 Y145.5289 I-0.0697 J-0.0758
G01 X-102.4620 Y145.6361
G00 Z0.0000
G00 Z5.0000

(Koordinaten nach Oben verschieben)
G00 Z25.0000
G00 X0 Y0
G92 X0 Y-217
G00 Y0

(Nr. 4: Falz_klemmer)
G00 Z25
G00 X-13.9561 Y43.7478
G00 Z0.5000
G01 X-12.9561 F1500
G02 X-14.4561 Y42.8818 Z0.0833 I-1.0000 J0.0000
G02 Y44.6138 Z-0.3333 I0.5000 J0.8660
G02 X-12.9561 Y43.7478 Z-0.7500 I0.5000 J-0.8660
G02 X-14.4561 Y42.8818 Z-1.1667 I-1.0000 J0.0000
G02 Y44.6138 Z-1.5833 I0.5000 J0.8660
G02 X-12.9561 Y43.7478 Z-2.0000 I0.5000 J-0.8660
G02 X-14.4561 Y42.8818 I-1.0000 J0.0000
G02 Y44.6138 I0.5000 J0.8660
G02 X-12.9561 Y43.7478 I0.5000 J-0.8660
G01 X-13.9561 F3000
G01 X-14.0100 Y43.8018
G01 X-13.9380 Y43.8378
G03 X-8.5380 Y43.2618 I3.4224 J6.4843
G01 X-7.6740 Y42.3978
G01 X4.4940 Y32.2098
G02 X2.4420 Y30.1578 I-1.0957 J-0.9563
G01 X-12.1740 Y42.5418
G01 X-13.3260 Y43.2618
G01 X-13.9020 Y43.6938
G01 X-13.9561 Y43.7478
G01 X-15.3046 Y42.4732
G02 X-17.6460 Y45.3498 I6.6881 J7.8350
G02 X-16.1340 Y49.5978 I3.6538 J1.0926
G01 X-16.0260
G03 X-7.8180 Y45.5298 I5.5060 J0.7948
G01 X-7.4580 Y44.7738
G01 X-6.6300 Y43.9458
G01 X5.6460 Y33.6498
G02 X1.1820 Y28.8258 I-2.2423 J-2.4025
G01 X-13.4700 Y41.2098
G02 X-15.3046 Y42.4732 I4.7341 J8.8380
G01 X-12.9531 Y46.4842
G03 X-5.9400 Y50.2659 I2.4149 J3.9154
G03 X-12.7216 Y54.4486 I-4.5983 J0.1337
G03 X-12.9531 Y46.4842 I2.1834 J-4.0490
G00 Z5.0000
G00 X-13.2153 Y40.9944
G00 Z-1.5000
G01 Z-2.0000 F1500
G01 X-13.8088 Y40.2921 F3000
G01 X-17.2319 Y43.1769
G02 X-17.7385 Y49.1130 I2.6727 J3.2177
G01 X-14.1532 Y53.3673
G02 X-6.7740 Y47.4884 I3.6252 J-3.0203
G03 X-6.3246 Y44.9699 I1.7383 J-0.9891
G01 X6.1315 Y34.4726
G02 X0.7183 Y28.0494 I-2.6968 J-3.2198
G01 X-13.8088 Y40.2921
G00 Z5.0000


(Nr. 11: klemmer)
G00 X-16.1854 Y42.8238 Z5.0000
G00 Z0.5000
G01 Z0.0000 F1500 S26000
G03 X-14.7344 Y41.1567 Z-0.4036 I6.3682 J4.0774
G01 X-6.4932 Y34.2114 Z-2.3650
G01 X-14.7344 Y41.1567 Z-4.3264
G02 X-16.1854 Y42.8238 Z-4.7300 I4.9173 J5.7445
G03 X-14.7344 Y41.1567 I6.3682 J4.0774 F3000
G01 X0.7794 Y28.0824
G03 X6.1288 Y34.4286 I2.6474 J3.1961
G01 X-7.8715 Y46.2306
G01 X-7.8970 Y46.2536
G01 X-7.8989 Y46.2638
G03 X-6.6486 Y47.7941 I-12.8313 J11.7595
G03 X-14.1188 Y53.4412 I-3.9023 J2.6024
G01 X-15.6297 Y51.6483
G03 X-16.1854 Y42.8238 I5.7553 J-4.7921
G00 Z5.0000


(Nr. 12: klemmer schlicht)
G00 X-16.1854 Y42.8238 Z5.0000
G00 Z0.5000
G01 Z-4.7300 F1500 S30000
G01 X-16.1026 Y42.8799 F2200
G03 X-14.6685 Y41.2319 I6.2833 J4.0197
G01 X0.8426 Y28.1599
G03 X6.0631 Y34.3532 I2.5843 J3.1185
G01 X-7.9372 Y46.1552
G02 X-7.9539 Y46.3559 I0.0583 J0.1059
G03 X-6.7318 Y47.8496 I-8.6691 J8.3396
G03 X-14.0432 Y53.3757 I-3.8191 J2.5469
G01 X-15.5520 Y51.5854
G03 X-16.1026 Y42.8799 I5.6775 J-4.7292
G01 X-16.1854 Y42.8238
G00 Z0.0000
G00 Z5.0000


(Nr. 7: Ausschnitt 19)
G00 X-90.6734 Y19.3906 Z5.0000
G00 Z0.5000
G01 Z0.0000 F1500 S26000
G01 X-92.6264 Y21.7080 Z-0.5515
G01 X-92.6114 Y21.6889 Z-0.5560
G01 X-92.6417 Y21.7398 Z-0.5668
G01 X-92.6223 Y21.7565 Z-0.5714
G01 X-89.6029 Y24.3010 Z-1.2900
G01 X-92.6223 Y21.7565 Z-2.0086
G01 X-92.6417 Y21.7398 Z-2.0132
G01 X-92.6114 Y21.6889 Z-2.0240
G01 X-92.6264 Y21.7080 Z-2.0285
G01 X-90.6734 Y19.3906 Z-2.5800
G01 X-92.6264 Y21.7080 F3000
G01 X-92.6114 Y21.6889
G01 X-92.6417 Y21.7398
G01 X-92.6223 Y21.7565
G01 X-68.7873 Y41.8434
G01 X-68.8049 Y41.8286
G01 X-79.1798 Y33.0851
G03 X-76.7074 Y28.6353 I1.7009 J-1.9667
G03 X-80.8087 Y27.3359 I24.2990 J-83.8167
G03 X-82.0350 Y26.6256 I1.4503 J-3.9177
G01 X-90.6250 Y19.3864
G01 X-90.6059 Y19.4015
G01 X-90.6567 Y19.3712
G01 X-90.6734 Y19.3906
G00 Z5.0000


(Nr. 8: Ausschnitt 19)
G00 X-90.6734 Y19.3906 Z5.0000
G00 Z0.5000
G01 Z-2.5800 F1500 S30000
G01 X-90.7488 Y19.3249 F3000
G01 X-92.7040 Y21.6448
G02 X-92.6880 Y21.8319 I0.0679 J0.0884
G01 X-68.8681 Y41.9061
G02 X-68.7392 Y41.7532 I0.0857 J-0.0585
G01 X-79.1142 Y33.0097
G03 X-76.6815 Y28.7365 I1.6439 J-1.8932
G02 X-76.6976 Y28.5335 I-0.0185 J-0.1007
G01 X-80.6060 Y27.2997
G03 X-81.9715 Y26.5483 I1.2438 J-3.8769
G01 X-90.5618 Y19.3089
G02 X-90.7488 Y19.3249 I-0.0884 J0.0679
G01 X-90.6734 Y19.3906
G00 Z0.0000
G00 Z5.0000


(Nr. 7: Ausschnitt 22)
G00 X-109.9955 Y160.8423 Z5.0000
G00 Z0.5000
G01 X-108.9955 F1500
G02 X-110.4955 Y159.9762 Z0.1500 I-1.0000 J0.0000
G02 Y161.7083 Z-0.2000 I0.5000 J0.8660
G02 X-108.9955 Y160.8423 Z-0.5500 I0.5000 J-0.8660
G02 X-110.4955 Y159.9762 I-1.0000 J0.0000
G02 Y161.7083 I0.5000 J0.8660
G02 X-108.9955 Y160.8423 I0.5000 J-0.8660
G01 X-109.9955 F3000
G01 X-110.4267 Y160.3751
G01 X-116.4387 Y170.1671
G01 X-116.6547 Y170.9951
G01 Y171.6431
G02 X-113.8467 Y174.2711 I3.5046 J-0.9305
G01 X-113.0187 Y172.9391
G01 X-112.9827 Y166.5671
G03 X-112.1826 Y164.5281 I5.5773 J1.0119
G03 X-108.9867 Y161.7791 I5.9231 J3.6540
G01 Y161.6711
G01 X-109.5627 Y161.3111
G01 X-109.9955 Y160.8423
G01 X-109.3257 Y160.2235
G03 X-109.5690 Y157.2206 I1.9880 J-1.6723
G01 X-102.4861 Y145.6769
G01 X-102.4620 Y145.6361
G01 X-102.4741 Y145.6557
G01 X-106.6236 Y152.4195
G01 X-106.6188 Y152.4099
G01 X-106.6285 Y152.4293
G01 X-107.1813 Y153.3285
G01 X-117.1060 Y169.5061
G02 X-116.0052 Y174.1013 I2.7973 J1.7593
G01 X-114.0814 Y175.2815
G02 X-113.2262 Y175.0766 I0.3338 J-0.4941
G01 X-112.0417 Y173.1459
G01 X-112.0296 Y173.1251
G01 X-112.0292 Y173.1008
G01 X-112.0640 Y167.3197
G03 X-110.3501 Y163.9403 I4.1934 J0.0025
G01 X-105.8594 Y160.6943
G01 X-105.8215 Y160.6659
G03 X-109.3257 Y160.2235 I-1.5134 J-2.1118
G00 Z5.0000


(Nr. 8: Ausschnitt 22)
G00 X-102.4620 Y145.6361 Z5.0000
G00 Z0.5000
G01 Z-0.5500 F1500 S30000
G01 X-102.4728 Y145.5289 F2200
G02 X-102.5585 Y145.6020 I0.0255 J0.1166
G01 X-106.7111 Y152.3709
G03 X-107.2642 Y153.2725 I-4.7917 J-2.3192
G01 X-117.1923 Y169.4555
G02 X-116.0592 Y174.1855 I2.8833 J1.8100
G01 X-114.1325 Y175.3675
G02 X-113.1417 Y175.1301 I0.3850 J-0.5796
G01 X-111.9559 Y173.1972
G02 X-111.9292 Y173.1014 I-0.1067 J-0.0814
G01 X-111.9640 Y167.3206
G03 X-110.2903 Y164.0205 I4.0937 J0.0017
G01 X-105.7802 Y160.7595
G02 X-105.8649 Y160.5755 I-0.0330 J-0.0963
G03 X-109.4830 Y157.2716 I-1.4706 J-2.0226
G01 X-102.3880 Y145.7066
G02 X-102.4728 Y145.5289 I-0.0697 J-0.0758
G01 X-102.4620 Y145.6361
G00 Z0.0000
G00 Z5.0000

(Koordinaten nach Links verschieben)
G00 Z25.0000
G00 X0 Y0
G92 X150 Y0
G00 X0


(Nr. 4: Falz_klemmer)
G00 Z25
G00 X-13.9561 Y43.7478
G00 Z0.5000
G01 X-12.9561 F1500
G02 X-14.4561 Y42.8818 Z0.0833 I-1.0000 J0.0000
G02 Y44.6138 Z-0.3333 I0.5000 J0.8660
G02 X-12.9561 Y43.7478 Z-0.7500 I0.5000 J-0.8660
G02 X-14.4561 Y42.8818 Z-1.1667 I-1.0000 J0.0000
G02 Y44.6138 Z-1.5833 I0.5000 J0.8660
G02 X-12.9561 Y43.7478 Z-2.0000 I0.5000 J-0.8660
G02 X-14.4561 Y42.8818 I-1.0000 J0.0000
G02 Y44.6138 I0.5000 J0.8660
G02 X-12.9561 Y43.7478 I0.5000 J-0.8660
G01 X-13.9561 F3000
G01 X-14.0100 Y43.8018
G01 X-13.9380 Y43.8378
G03 X-8.5380 Y43.2618 I3.4224 J6.4843
G01 X-7.6740 Y42.3978
G01 X4.4940 Y32.2098
G02 X2.4420 Y30.1578 I-1.0957 J-0.9563
G01 X-12.1740 Y42.5418
G01 X-13.3260 Y43.2618
G01 X-13.9020 Y43.6938
G01 X-13.9561 Y43.7478
G01 X-15.3046 Y42.4732
G02 X-17.6460 Y45.3498 I6.6881 J7.8350
G02 X-16.1340 Y49.5978 I3.6538 J1.0926
G01 X-16.0260
G03 X-7.8180 Y45.5298 I5.5060 J0.7948
G01 X-7.4580 Y44.7738
G01 X-6.6300 Y43.9458
G01 X5.6460 Y33.6498
G02 X1.1820 Y28.8258 I-2.2423 J-2.4025
G01 X-13.4700 Y41.2098
G02 X-15.3046 Y42.4732 I4.7341 J8.8380
G01 X-12.9531 Y46.4842
G03 X-5.9400 Y50.2659 I2.4149 J3.9154
G03 X-12.7216 Y54.4486 I-4.5983 J0.1337
G03 X-12.9531 Y46.4842 I2.1834 J-4.0490
G00 Z5.0000
G00 X-13.2153 Y40.9944
G00 Z-1.5000
G01 Z-2.0000 F1500
G01 X-13.8088 Y40.2921 F3000
G01 X-17.2319 Y43.1769
G02 X-17.7385 Y49.1130 I2.6727 J3.2177
G01 X-14.1532 Y53.3673
G02 X-6.7740 Y47.4884 I3.6252 J-3.0203
G03 X-6.3246 Y44.9699 I1.7383 J-0.9891
G01 X6.1315 Y34.4726
G02 X0.7183 Y28.0494 I-2.6968 J-3.2198
G01 X-13.8088 Y40.2921
G00 Z5.0000


(Nr. 11: klemmer)
G00 X-16.1854 Y42.8238 Z5.0000
G00 Z0.5000
G01 Z0.0000 F1500 S26000
G03 X-14.7344 Y41.1567 Z-0.4036 I6.3682 J4.0774
G01 X-6.4932 Y34.2114 Z-2.3650
G01 X-14.7344 Y41.1567 Z-4.3264
G02 X-16.1854 Y42.8238 Z-4.7300 I4.9173 J5.7445
G03 X-14.7344 Y41.1567 I6.3682 J4.0774 F3000
G01 X0.7794 Y28.0824
G03 X6.1288 Y34.4286 I2.6474 J3.1961
G01 X-7.8715 Y46.2306
G01 X-7.8970 Y46.2536
G01 X-7.8989 Y46.2638
G03 X-6.6486 Y47.7941 I-12.8313 J11.7595
G03 X-14.1188 Y53.4412 I-3.9023 J2.6024
G01 X-15.6297 Y51.6483
G03 X-16.1854 Y42.8238 I5.7553 J-4.7921
G00 Z5.0000


(Nr. 12: klemmer schlicht)
G00 X-16.1854 Y42.8238 Z5.0000
G00 Z0.5000
G01 Z-4.7300 F1500 S30000
G01 X-16.1026 Y42.8799 F2200
G03 X-14.6685 Y41.2319 I6.2833 J4.0197
G01 X0.8426 Y28.1599
G03 X6.0631 Y34.3532 I2.5843 J3.1185
G01 X-7.9372 Y46.1552
G02 X-7.9539 Y46.3559 I0.0583 J0.1059
G03 X-6.7318 Y47.8496 I-8.6691 J8.3396
G03 X-14.0432 Y53.3757 I-3.8191 J2.5469
G01 X-15.5520 Y51.5854
G03 X-16.1026 Y42.8799 I5.6775 J-4.7292
G01 X-16.1854 Y42.8238
G00 Z0.0000
G00 Z5.0000


(Nr. 7: Ausschnitt 19)
G00 X-90.6734 Y19.3906 Z5.0000
G00 Z0.5000
G01 Z0.0000 F1500 S26000
G01 X-92.6264 Y21.7080 Z-0.5515
G01 X-92.6114 Y21.6889 Z-0.5560
G01 X-92.6417 Y21.7398 Z-0.5668
G01 X-92.6223 Y21.7565 Z-0.5714
G01 X-89.6029 Y24.3010 Z-1.2900
G01 X-92.6223 Y21.7565 Z-2.0086
G01 X-92.6417 Y21.7398 Z-2.0132
G01 X-92.6114 Y21.6889 Z-2.0240
G01 X-92.6264 Y21.7080 Z-2.0285
G01 X-90.6734 Y19.3906 Z-2.5800
G01 X-92.6264 Y21.7080 F3000
G01 X-92.6114 Y21.6889
G01 X-92.6417 Y21.7398
G01 X-92.6223 Y21.7565
G01 X-68.7873 Y41.8434
G01 X-68.8049 Y41.8286
G01 X-79.1798 Y33.0851
G03 X-76.7074 Y28.6353 I1.7009 J-1.9667
G03 X-80.8087 Y27.3359 I24.2990 J-83.8167
G03 X-82.0350 Y26.6256 I1.4503 J-3.9177
G01 X-90.6250 Y19.3864
G01 X-90.6059 Y19.4015
G01 X-90.6567 Y19.3712
G01 X-90.6734 Y19.3906
G00 Z5.0000


(Nr. 8: Ausschnitt 19)
G00 X-90.6734 Y19.3906 Z5.0000
G00 Z0.5000
G01 Z-2.5800 F1500 S30000
G01 X-90.7488 Y19.3249 F3000
G01 X-92.7040 Y21.6448
G02 X-92.6880 Y21.8319 I0.0679 J0.0884
G01 X-68.8681 Y41.9061
G02 X-68.7392 Y41.7532 I0.0857 J-0.0585
G01 X-79.1142 Y33.0097
G03 X-76.6815 Y28.7365 I1.6439 J-1.8932
G02 X-76.6976 Y28.5335 I-0.0185 J-0.1007
G01 X-80.6060 Y27.2997
G03 X-81.9715 Y26.5483 I1.2438 J-3.8769
G01 X-90.5618 Y19.3089
G02 X-90.7488 Y19.3249 I-0.0884 J0.0679
G01 X-90.6734 Y19.3906
G00 Z0.0000
G00 Z5.0000


(Nr. 7: Ausschnitt 22)
G00 X-109.9955 Y160.8423 Z5.0000
G00 Z0.5000
G01 X-108.9955 F1500
G02 X-110.4955 Y159.9762 Z0.1500 I-1.0000 J0.0000
G02 Y161.7083 Z-0.2000 I0.5000 J0.8660
G02 X-108.9955 Y160.8423 Z-0.5500 I0.5000 J-0.8660
G02 X-110.4955 Y159.9762 I-1.0000 J0.0000
G02 Y161.7083 I0.5000 J0.8660
G02 X-108.9955 Y160.8423 I0.5000 J-0.8660
G01 X-109.9955 F3000
G01 X-110.4267 Y160.3751
G01 X-116.4387 Y170.1671
G01 X-116.6547 Y170.9951
G01 Y171.6431
G02 X-113.8467 Y174.2711 I3.5046 J-0.9305
G01 X-113.0187 Y172.9391
G01 X-112.9827 Y166.5671
G03 X-112.1826 Y164.5281 I5.5773 J1.0119
G03 X-108.9867 Y161.7791 I5.9231 J3.6540
G01 Y161.6711
G01 X-109.5627 Y161.3111
G01 X-109.9955 Y160.8423
G01 X-109.3257 Y160.2235
G03 X-109.5690 Y157.2206 I1.9880 J-1.6723
G01 X-102.4861 Y145.6769
G01 X-102.4620 Y145.6361
G01 X-102.4741 Y145.6557
G01 X-106.6236 Y152.4195
G01 X-106.6188 Y152.4099
G01 X-106.6285 Y152.4293
G01 X-107.1813 Y153.3285
G01 X-117.1060 Y169.5061
G02 X-116.0052 Y174.1013 I2.7973 J1.7593
G01 X-114.0814 Y175.2815
G02 X-113.2262 Y175.0766 I0.3338 J-0.4941
G01 X-112.0417 Y173.1459
G01 X-112.0296 Y173.1251
G01 X-112.0292 Y173.1008
G01 X-112.0640 Y167.3197
G03 X-110.3501 Y163.9403 I4.1934 J0.0025
G01 X-105.8594 Y160.6943
G01 X-105.8215 Y160.6659
G03 X-109.3257 Y160.2235 I-1.5134 J-2.1118
G00 Z5.0000


(Nr. 8: Ausschnitt 22)
G00 X-102.4620 Y145.6361 Z5.0000
G00 Z0.5000
G01 Z-0.5500 F1500 S30000
G01 X-102.4728 Y145.5289 F2200
G02 X-102.5585 Y145.6020 I0.0255 J0.1166
G01 X-106.7111 Y152.3709
G03 X-107.2642 Y153.2725 I-4.7917 J-2.3192
G01 X-117.1923 Y169.4555
G02 X-116.0592 Y174.1855 I2.8833 J1.8100
G01 X-114.1325 Y175.3675
G02 X-113.1417 Y175.1301 I0.3850 J-0.5796
G01 X-111.9559 Y173.1972
G02 X-111.9292 Y173.1014 I-0.1067 J-0.0814
G01 X-111.9640 Y167.3206
G03 X-110.2903 Y164.0205 I4.0937 J0.0017
G01 X-105.7802 Y160.7595
G02 X-105.8649 Y160.5755 I-0.0330 J-0.0963
G03 X-109.4830 Y157.2716 I-1.4706 J-2.0226
G01 X-102.3880 Y145.7066
G02 X-102.4728 Y145.5289 I-0.0697 J-0.0758
G01 X-102.4620 Y145.6361
G00 Z0.0000
G00 Z5.0000


(Koordinaten nach Unten verschieben)
G00 Z25.0000
G00 X0 Y0
G92 X0 Y+217
G00 Y0


(Nr. 4: Falz_klemmer)
G00 Z25
G00 X-13.9561 Y43.7478
G00 Z0.5000
G01 X-12.9561 F1500
G02 X-14.4561 Y42.8818 Z0.0833 I-1.0000 J0.0000
G02 Y44.6138 Z-0.3333 I0.5000 J0.8660
G02 X-12.9561 Y43.7478 Z-0.7500 I0.5000 J-0.8660
G02 X-14.4561 Y42.8818 Z-1.1667 I-1.0000 J0.0000
G02 Y44.6138 Z-1.5833 I0.5000 J0.8660
G02 X-12.9561 Y43.7478 Z-2.0000 I0.5000 J-0.8660
G02 X-14.4561 Y42.8818 I-1.0000 J0.0000
G02 Y44.6138 I0.5000 J0.8660
G02 X-12.9561 Y43.7478 I0.5000 J-0.8660
G01 X-13.9561 F3000
G01 X-14.0100 Y43.8018
G01 X-13.9380 Y43.8378
G03 X-8.5380 Y43.2618 I3.4224 J6.4843
G01 X-7.6740 Y42.3978
G01 X4.4940 Y32.2098
G02 X2.4420 Y30.1578 I-1.0957 J-0.9563
G01 X-12.1740 Y42.5418
G01 X-13.3260 Y43.2618
G01 X-13.9020 Y43.6938
G01 X-13.9561 Y43.7478
G01 X-15.3046 Y42.4732
G02 X-17.6460 Y45.3498 I6.6881 J7.8350
G02 X-16.1340 Y49.5978 I3.6538 J1.0926
G01 X-16.0260
G03 X-7.8180 Y45.5298 I5.5060 J0.7948
G01 X-7.4580 Y44.7738
G01 X-6.6300 Y43.9458
G01 X5.6460 Y33.6498
G02 X1.1820 Y28.8258 I-2.2423 J-2.4025
G01 X-13.4700 Y41.2098
G02 X-15.3046 Y42.4732 I4.7341 J8.8380
G01 X-12.9531 Y46.4842
G03 X-5.9400 Y50.2659 I2.4149 J3.9154
G03 X-12.7216 Y54.4486 I-4.5983 J0.1337
G03 X-12.9531 Y46.4842 I2.1834 J-4.0490
G00 Z5.0000
G00 X-13.2153 Y40.9944
G00 Z-1.5000
G01 Z-2.0000 F1500
G01 X-13.8088 Y40.2921 F3000
G01 X-17.2319 Y43.1769
G02 X-17.7385 Y49.1130 I2.6727 J3.2177
G01 X-14.1532 Y53.3673
G02 X-6.7740 Y47.4884 I3.6252 J-3.0203
G03 X-6.3246 Y44.9699 I1.7383 J-0.9891
G01 X6.1315 Y34.4726
G02 X0.7183 Y28.0494 I-2.6968 J-3.2198
G01 X-13.8088 Y40.2921
G00 Z5.0000


(Nr. 11: klemmer)
G00 X-16.1854 Y42.8238 Z5.0000
G00 Z0.5000
G01 Z0.0000 F1500 S26000
G03 X-14.7344 Y41.1567 Z-0.4036 I6.3682 J4.0774
G01 X-6.4932 Y34.2114 Z-2.3650
G01 X-14.7344 Y41.1567 Z-4.3264
G02 X-16.1854 Y42.8238 Z-4.7300 I4.9173 J5.7445
G03 X-14.7344 Y41.1567 I6.3682 J4.0774 F3000
G01 X0.7794 Y28.0824
G03 X6.1288 Y34.4286 I2.6474 J3.1961
G01 X-7.8715 Y46.2306
G01 X-7.8970 Y46.2536
G01 X-7.8989 Y46.2638
G03 X-6.6486 Y47.7941 I-12.8313 J11.7595
G03 X-14.1188 Y53.4412 I-3.9023 J2.6024
G01 X-15.6297 Y51.6483
G03 X-16.1854 Y42.8238 I5.7553 J-4.7921
G00 Z5.0000


(Nr. 12: klemmer schlicht)
G00 X-16.1854 Y42.8238 Z5.0000
G00 Z0.5000
G01 Z-4.7300 F1500 S30000
G01 X-16.1026 Y42.8799 F2200
G03 X-14.6685 Y41.2319 I6.2833 J4.0197
G01 X0.8426 Y28.1599
G03 X6.0631 Y34.3532 I2.5843 J3.1185
G01 X-7.9372 Y46.1552
G02 X-7.9539 Y46.3559 I0.0583 J0.1059
G03 X-6.7318 Y47.8496 I-8.6691 J8.3396
G03 X-14.0432 Y53.3757 I-3.8191 J2.5469
G01 X-15.5520 Y51.5854
G03 X-16.1026 Y42.8799 I5.6775 J-4.7292
G01 X-16.1854 Y42.8238
G00 Z0.0000
G00 Z5.0000


(Nr. 7: Ausschnitt 19)
G00 X-90.6734 Y19.3906 Z5.0000
G00 Z0.5000
G01 Z0.0000 F1500 S26000
G01 X-92.6264 Y21.7080 Z-0.5515
G01 X-92.6114 Y21.6889 Z-0.5560
G01 X-92.6417 Y21.7398 Z-0.5668
G01 X-92.6223 Y21.7565 Z-0.5714
G01 X-89.6029 Y24.3010 Z-1.2900
G01 X-92.6223 Y21.7565 Z-2.0086
G01 X-92.6417 Y21.7398 Z-2.0132
G01 X-92.6114 Y21.6889 Z-2.0240
G01 X-92.6264 Y21.7080 Z-2.0285
G01 X-90.6734 Y19.3906 Z-2.5800
G01 X-92.6264 Y21.7080 F3000
G01 X-92.6114 Y21.6889
G01 X-92.6417 Y21.7398
G01 X-92.6223 Y21.7565
G01 X-68.7873 Y41.8434
G01 X-68.8049 Y41.8286
G01 X-79.1798 Y33.0851
G03 X-76.7074 Y28.6353 I1.7009 J-1.9667
G03 X-80.8087 Y27.3359 I24.2990 J-83.8167
G03 X-82.0350 Y26.6256 I1.4503 J-3.9177
G01 X-90.6250 Y19.3864
G01 X-90.6059 Y19.4015
G01 X-90.6567 Y19.3712
G01 X-90.6734 Y19.3906
G00 Z5.0000


(Nr. 8: Ausschnitt 19)
G00 X-90.6734 Y19.3906 Z5.0000
G00 Z0.5000
G01 Z-2.5800 F1500 S30000
G01 X-90.7488 Y19.3249 F3000
G01 X-92.7040 Y21.6448
G02 X-92.6880 Y21.8319 I0.0679 J0.0884
G01 X-68.8681 Y41.9061
G02 X-68.7392 Y41.7532 I0.0857 J-0.0585
G01 X-79.1142 Y33.0097
G03 X-76.6815 Y28.7365 I1.6439 J-1.8932
G02 X-76.6976 Y28.5335 I-0.0185 J-0.1007
G01 X-80.6060 Y27.2997
G03 X-81.9715 Y26.5483 I1.2438 J-3.8769
G01 X-90.5618 Y19.3089
G02 X-90.7488 Y19.3249 I-0.0884 J0.0679
G01 X-90.6734 Y19.3906
G00 Z0.0000
G00 Z5.0000


(Nr. 7: Ausschnitt 22)
G00 X-109.9955 Y160.8423 Z5.0000
G00 Z0.5000
G01 X-108.9955 F1500
G02 X-110.4955 Y159.9762 Z0.1500 I-1.0000 J0.0000
G02 Y161.7083 Z-0.2000 I0.5000 J0.8660
G02 X-108.9955 Y160.8423 Z-0.5500 I0.5000 J-0.8660
G02 X-110.4955 Y159.9762 I-1.0000 J0.0000
G02 Y161.7083 I0.5000 J0.8660
G02 X-108.9955 Y160.8423 I0.5000 J-0.8660
G01 X-109.9955 F3000
G01 X-110.4267 Y160.3751
G01 X-116.4387 Y170.1671
G01 X-116.6547 Y170.9951
G01 Y171.6431
G02 X-113.8467 Y174.2711 I3.5046 J-0.9305
G01 X-113.0187 Y172.9391
G01 X-112.9827 Y166.5671
G03 X-112.1826 Y164.5281 I5.5773 J1.0119
G03 X-108.9867 Y161.7791 I5.9231 J3.6540
G01 Y161.6711
G01 X-109.5627 Y161.3111
G01 X-109.9955 Y160.8423
G01 X-109.3257 Y160.2235
G03 X-109.5690 Y157.2206 I1.9880 J-1.6723
G01 X-102.4861 Y145.6769
G01 X-102.4620 Y145.6361
G01 X-102.4741 Y145.6557
G01 X-106.6236 Y152.4195
G01 X-106.6188 Y152.4099
G01 X-106.6285 Y152.4293
G01 X-107.1813 Y153.3285
G01 X-117.1060 Y169.5061
G02 X-116.0052 Y174.1013 I2.7973 J1.7593
G01 X-114.0814 Y175.2815
G02 X-113.2262 Y175.0766 I0.3338 J-0.4941
G01 X-112.0417 Y173.1459
G01 X-112.0296 Y173.1251
G01 X-112.0292 Y173.1008
G01 X-112.0640 Y167.3197
G03 X-110.3501 Y163.9403 I4.1934 J0.0025
G01 X-105.8594 Y160.6943
G01 X-105.8215 Y160.6659
G03 X-109.3257 Y160.2235 I-1.5134 J-2.1118
G00 Z5.0000


(Nr. 8: Ausschnitt 22)
G00 X-102.4620 Y145.6361 Z5.0000
G00 Z0.5000
G01 Z-0.5500 F1500 S30000
G01 X-102.4728 Y145.5289 F2200
G02 X-102.5585 Y145.6020 I0.0255 J0.1166
G01 X-106.7111 Y152.3709
G03 X-107.2642 Y153.2725 I-4.7917 J-2.3192
G01 X-117.1923 Y169.4555
G02 X-116.0592 Y174.1855 I2.8833 J1.8100
G01 X-114.1325 Y175.3675
G02 X-113.1417 Y175.1301 I0.3850 J-0.5796
G01 X-111.9559 Y173.1972
G02 X-111.9292 Y173.1014 I-0.1067 J-0.0814
G01 X-111.9640 Y167.3206
G03 X-110.2903 Y164.0205 I4.0937 J0.0017
G01 X-105.7802 Y160.7595
G02 X-105.8649 Y160.5755 I-0.0330 J-0.0963
G03 X-109.4830 Y157.2716 I-1.4706 J-2.0226
G01 X-102.3880 Y145.7066
G02 X-102.4728 Y145.5289 I-0.0697 J-0.0758
G01 X-102.4620 Y145.6361
G00 Z0.0000
G00 Z5.0000


(Koordinaten nach Unten verschieben)
G00 Z25.0000
G00 X0 Y0
G92 X0 Y+217
G00 Y0


(Nr. 4: Falz_klemmer)
G00 Z25
G00 X-13.9561 Y43.7478
G00 Z0.5000
G01 X-12.9561 F1500
G02 X-14.4561 Y42.8818 Z0.0833 I-1.0000 J0.0000
G02 Y44.6138 Z-0.3333 I0.5000 J0.8660
G02 X-12.9561 Y43.7478 Z-0.7500 I0.5000 J-0.8660
G02 X-14.4561 Y42.8818 Z-1.1667 I-1.0000 J0.0000
G02 Y44.6138 Z-1.5833 I0.5000 J0.8660
G02 X-12.9561 Y43.7478 Z-2.0000 I0.5000 J-0.8660
G02 X-14.4561 Y42.8818 I-1.0000 J0.0000
G02 Y44.6138 I0.5000 J0.8660
G02 X-12.9561 Y43.7478 I0.5000 J-0.8660
G01 X-13.9561 F3000
G01 X-14.0100 Y43.8018
G01 X-13.9380 Y43.8378
G03 X-8.5380 Y43.2618 I3.4224 J6.4843
G01 X-7.6740 Y42.3978
G01 X4.4940 Y32.2098
G02 X2.4420 Y30.1578 I-1.0957 J-0.9563
G01 X-12.1740 Y42.5418
G01 X-13.3260 Y43.2618
G01 X-13.9020 Y43.6938
G01 X-13.9561 Y43.7478
G01 X-15.3046 Y42.4732
G02 X-17.6460 Y45.3498 I6.6881 J7.8350
G02 X-16.1340 Y49.5978 I3.6538 J1.0926
G01 X-16.0260
G03 X-7.8180 Y45.5298 I5.5060 J0.7948
G01 X-7.4580 Y44.7738
G01 X-6.6300 Y43.9458
G01 X5.6460 Y33.6498
G02 X1.1820 Y28.8258 I-2.2423 J-2.4025
G01 X-13.4700 Y41.2098
G02 X-15.3046 Y42.4732 I4.7341 J8.8380
G01 X-12.9531 Y46.4842
G03 X-5.9400 Y50.2659 I2.4149 J3.9154
G03 X-12.7216 Y54.4486 I-4.5983 J0.1337
G03 X-12.9531 Y46.4842 I2.1834 J-4.0490
G00 Z5.0000
G00 X-13.2153 Y40.9944
G00 Z-1.5000
G01 Z-2.0000 F1500
G01 X-13.8088 Y40.2921 F3000
G01 X-17.2319 Y43.1769
G02 X-17.7385 Y49.1130 I2.6727 J3.2177
G01 X-14.1532 Y53.3673
G02 X-6.7740 Y47.4884 I3.6252 J-3.0203
G03 X-6.3246 Y44.9699 I1.7383 J-0.9891
G01 X6.1315 Y34.4726
G02 X0.7183 Y28.0494 I-2.6968 J-3.2198
G01 X-13.8088 Y40.2921
G00 Z5.0000


(Nr. 11: klemmer)
G00 X-16.1854 Y42.8238 Z5.0000
G00 Z0.5000
G01 Z0.0000 F1500 S26000
G03 X-14.7344 Y41.1567 Z-0.4036 I6.3682 J4.0774
G01 X-6.4932 Y34.2114 Z-2.3650
G01 X-14.7344 Y41.1567 Z-4.3264
G02 X-16.1854 Y42.8238 Z-4.7300 I4.9173 J5.7445
G03 X-14.7344 Y41.1567 I6.3682 J4.0774 F3000
G01 X0.7794 Y28.0824
G03 X6.1288 Y34.4286 I2.6474 J3.1961
G01 X-7.8715 Y46.2306
G01 X-7.8970 Y46.2536
G01 X-7.8989 Y46.2638
G03 X-6.6486 Y47.7941 I-12.8313 J11.7595
G03 X-14.1188 Y53.4412 I-3.9023 J2.6024
G01 X-15.6297 Y51.6483
G03 X-16.1854 Y42.8238 I5.7553 J-4.7921
G00 Z5.0000


(Nr. 12: klemmer schlicht)
G00 X-16.1854 Y42.8238 Z5.0000
G00 Z0.5000
G01 Z-4.7300 F1500 S30000
G01 X-16.1026 Y42.8799 F2200
G03 X-14.6685 Y41.2319 I6.2833 J4.0197
G01 X0.8426 Y28.1599
G03 X6.0631 Y34.3532 I2.5843 J3.1185
G01 X-7.9372 Y46.1552
G02 X-7.9539 Y46.3559 I0.0583 J0.1059
G03 X-6.7318 Y47.8496 I-8.6691 J8.3396
G03 X-14.0432 Y53.3757 I-3.8191 J2.5469
G01 X-15.5520 Y51.5854
G03 X-16.1026 Y42.8799 I5.6775 J-4.7292
G01 X-16.1854 Y42.8238
G00 Z0.0000
G00 Z5.0000


(Nr. 7: Ausschnitt 19)
G00 X-90.6734 Y19.3906 Z5.0000
G00 Z0.5000
G01 Z0.0000 F1500 S26000
G01 X-92.6264 Y21.7080 Z-0.5515
G01 X-92.6114 Y21.6889 Z-0.5560
G01 X-92.6417 Y21.7398 Z-0.5668
G01 X-92.6223 Y21.7565 Z-0.5714
G01 X-89.6029 Y24.3010 Z-1.2900
G01 X-92.6223 Y21.7565 Z-2.0086
G01 X-92.6417 Y21.7398 Z-2.0132
G01 X-92.6114 Y21.6889 Z-2.0240
G01 X-92.6264 Y21.7080 Z-2.0285
G01 X-90.6734 Y19.3906 Z-2.5800
G01 X-92.6264 Y21.7080 F3000
G01 X-92.6114 Y21.6889
G01 X-92.6417 Y21.7398
G01 X-92.6223 Y21.7565
G01 X-68.7873 Y41.8434
G01 X-68.8049 Y41.8286
G01 X-79.1798 Y33.0851
G03 X-76.7074 Y28.6353 I1.7009 J-1.9667
G03 X-80.8087 Y27.3359 I24.2990 J-83.8167
G03 X-82.0350 Y26.6256 I1.4503 J-3.9177
G01 X-90.6250 Y19.3864
G01 X-90.6059 Y19.4015
G01 X-90.6567 Y19.3712
G01 X-90.6734 Y19.3906
G00 Z5.0000


(Nr. 8: Ausschnitt 19)
G00 X-90.6734 Y19.3906 Z5.0000
G00 Z0.5000
G01 Z-2.5800 F1500 S30000
G01 X-90.7488 Y19.3249 F3000
G01 X-92.7040 Y21.6448
G02 X-92.6880 Y21.8319 I0.0679 J0.0884
G01 X-68.8681 Y41.9061
G02 X-68.7392 Y41.7532 I0.0857 J-0.0585
G01 X-79.1142 Y33.0097
G03 X-76.6815 Y28.7365 I1.6439 J-1.8932
G02 X-76.6976 Y28.5335 I-0.0185 J-0.1007
G01 X-80.6060 Y27.2997
G03 X-81.9715 Y26.5483 I1.2438 J-3.8769
G01 X-90.5618 Y19.3089
G02 X-90.7488 Y19.3249 I-0.0884 J0.0679
G01 X-90.6734 Y19.3906
G00 Z0.0000
G00 Z5.0000


(Nr. 7: Ausschnitt 22)
G00 X-109.9955 Y160.8423 Z5.0000
G00 Z0.5000
G01 X-108.9955 F1500
G02 X-110.4955 Y159.9762 Z0.1500 I-1.0000 J0.0000
G02 Y161.7083 Z-0.2000 I0.5000 J0.8660
G02 X-108.9955 Y160.8423 Z-0.5500 I0.5000 J-0.8660
G02 X-110.4955 Y159.9762 I-1.0000 J0.0000
G02 Y161.7083 I0.5000 J0.8660
G02 X-108.9955 Y160.8423 I0.5000 J-0.8660
G01 X-109.9955 F3000
G01 X-110.4267 Y160.3751
G01 X-116.4387 Y170.1671
G01 X-116.6547 Y170.9951
G01 Y171.6431
G02 X-113.8467 Y174.2711 I3.5046 J-0.9305
G01 X-113.0187 Y172.9391
G01 X-112.9827 Y166.5671
G03 X-112.1826 Y164.5281 I5.5773 J1.0119
G03 X-108.9867 Y161.7791 I5.9231 J3.6540
G01 Y161.6711
G01 X-109.5627 Y161.3111
G01 X-109.9955 Y160.8423
G01 X-109.3257 Y160.2235
G03 X-109.5690 Y157.2206 I1.9880 J-1.6723
G01 X-102.4861 Y145.6769
G01 X-102.4620 Y145.6361
G01 X-102.4741 Y145.6557
G01 X-106.6236 Y152.4195
G01 X-106.6188 Y152.4099
G01 X-106.6285 Y152.4293
G01 X-107.1813 Y153.3285
G01 X-117.1060 Y169.5061
G02 X-116.0052 Y174.1013 I2.7973 J1.7593
G01 X-114.0814 Y175.2815
G02 X-113.2262 Y175.0766 I0.3338 J-0.4941
G01 X-112.0417 Y173.1459
G01 X-112.0296 Y173.1251
G01 X-112.0292 Y173.1008
G01 X-112.0640 Y167.3197
G03 X-110.3501 Y163.9403 I4.1934 J0.0025
G01 X-105.8594 Y160.6943
G01 X-105.8215 Y160.6659
G03 X-109.3257 Y160.2235 I-1.5134 J-2.1118
G00 Z5.0000


(Nr. 8: Ausschnitt 22)
G00 X-102.4620 Y145.6361 Z5.0000
G00 Z0.5000
G01 Z-0.5500 F1500 S30000
G01 X-102.4728 Y145.5289 F2200
G02 X-102.5585 Y145.6020 I0.0255 J0.1166
G01 X-106.7111 Y152.3709
G03 X-107.2642 Y153.2725 I-4.7917 J-2.3192
G01 X-117.1923 Y169.4555
G02 X-116.0592 Y174.1855 I2.8833 J1.8100
G01 X-114.1325 Y175.3675
G02 X-113.1417 Y175.1301 I0.3850 J-0.5796
G01 X-111.9559 Y173.1972
G02 X-111.9292 Y173.1014 I-0.1067 J-0.0814
G01 X-111.9640 Y167.3206
G03 X-110.2903 Y164.0205 I4.0937 J0.0017
G01 X-105.7802 Y160.7595
G02 X-105.8649 Y160.5755 I-0.0330 J-0.0963
G03 X-109.4830 Y157.2716 I-1.4706 J-2.0226
G01 X-102.3880 Y145.7066
G02 X-102.4728 Y145.5289 I-0.0697 J-0.0758
G01 X-102.4620 Y145.6361
G00 Z0.0000
G00 Z5.0000

(Nr. 16:  M4 7)
M05
MSG "Werkzeug: #35 Gewinde M4-M5"
T35 M06
M03 S15000
G00 Z25
G00 X-45.1415 Y10.6905 
G00 Z0.5
G01 Z-1 F1000
G00 Z5
G01 Z-2 
G00 Z5
G01 Z-3 
G00 Z5
G01 Z-4 
G00 Z5
G01 Z-4.6000 F1000 S15000
G00 Z5
G01 Z-4.6000 F1000
G01 X-44.7165
G03 X-45.3540 Y11.0585 Z-4.3667 I-0.4250 J0.0000
G03 Y10.3224 Z-4.1333 I0.2125 J-0.3681
G03 X-44.7165 Y10.6905 Z-3.9000 I0.2125 J0.3681
G03 X-45.3540 Y11.0585 Z-3.6667 I-0.4250 J0.0000
G03 Y10.3224 Z-3.4333 I0.2125 J-0.3681
G03 X-44.7165 Y10.6905 Z-3.2000 I0.2125 J0.3681
G03 X-45.3540 Y11.0585 Z-2.9667 I-0.4250 J0.0000
G03 Y10.3224 Z-2.7333 I0.2125 J-0.3681
G03 X-44.7165 Y10.6905 Z-2.5000 I0.2125 J0.3681
G03 X-45.3540 Y11.0585 Z-2.2667 I-0.4250 J0.0000
G03 Y10.3224 Z-2.0333 I0.2125 J-0.3681
G03 X-44.7165 Y10.6905 Z-1.8000 I0.2125 J0.3681
G03 X-45.3540 Y11.0585 Z-1.5667 I-0.4250 J0.0000
G03 Y10.3224 Z-1.3333 I0.2125 J-0.3681
G03 X-44.7165 Y10.6905 Z-1.1000 I0.2125 J0.3681
G03 X-45.3540 Y11.0585 Z-0.8667 I-0.4250 J0.0000
G03 Y10.3224 Z-0.6333 I0.2125 J-0.3681
G03 X-44.7165 Y10.6905 Z-0.4000 I0.2125 J0.3681
G03 X-45.3540 Y11.0585 Z-0.1667 I-0.4250 J0.0000
G03 Y10.3224 Z0.0667 I0.2125 J-0.3681
G03 X-44.7165 Y10.6905 Z0.3000 I0.2125 J0.3681
G03 X-45.3540 Y11.0585 Z0.5333 I-0.4250 J0.0000
G03 Y10.3224 Z0.7667 I0.2125 J-0.3681
G03 X-44.7165 Y10.6905 Z1.0000 I0.2125 J0.3681
G00 Z5.0000


(Nr. 17:  M4 5)
G00 X-79.0983 Y40.9016 Z5.0000
G01 Z-1 F1000
G00 Z5
G01 Z-2 
G00 Z5
G01 Z-3 
G00 Z5
G01 Z-4 
G00 Z5
G01 Z-4.6000 F1000
G00 Z5
G01 Z-4.6000 F1000
G01 X-78.6733
G03 X-79.3108 Y41.2697 Z-4.3667 I-0.4250 J0.0000
G03 Y40.5336 Z-4.1333 I0.2125 J-0.3681
G03 X-78.6733 Y40.9016 Z-3.9000 I0.2125 J0.3681
G03 X-79.3108 Y41.2697 Z-3.6667 I-0.4250 J0.0000
G03 Y40.5336 Z-3.4333 I0.2125 J-0.3681
G03 X-78.6733 Y40.9016 Z-3.2000 I0.2125 J0.3681
G03 X-79.3108 Y41.2697 Z-2.9667 I-0.4250 J0.0000
G03 Y40.5336 Z-2.7333 I0.2125 J-0.3681
G03 X-78.6733 Y40.9016 Z-2.5000 I0.2125 J0.3681
G03 X-79.3108 Y41.2697 Z-2.2667 I-0.4250 J0.0000
G03 Y40.5336 Z-2.0333 I0.2125 J-0.3681
G03 X-78.6733 Y40.9016 Z-1.8000 I0.2125 J0.3681
G03 X-79.3108 Y41.2697 Z-1.5667 I-0.4250 J0.0000
G03 Y40.5336 Z-1.3333 I0.2125 J-0.3681
G03 X-78.6733 Y40.9016 Z-1.1000 I0.2125 J0.3681
G03 X-79.3108 Y41.2697 Z-0.8667 I-0.4250 J0.0000
G03 Y40.5336 Z-0.6333 I0.2125 J-0.3681
G03 X-78.6733 Y40.9016 Z-0.4000 I0.2125 J0.3681
G03 X-79.3108 Y41.2697 Z-0.1667 I-0.4250 J0.0000
G03 Y40.5336 Z0.0667 I0.2125 J-0.3681
G03 X-78.6733 Y40.9016 Z0.3000 I0.2125 J0.3681
G03 X-79.3108 Y41.2697 Z0.5333 I-0.4250 J0.0000
G03 Y40.5336 Z0.7667 I0.2125 J-0.3681
G03 X-78.6733 Y40.9016 Z1.0000 I0.2125 J0.3681
G00 Z5.0000


(Nr. 18:  M4 6)
G00 X-122.2404 Y26.5998 Z5.0000
G01 Z-1 F1000
G00 Z5
G01 Z-2 
G00 Z5
G01 Z-3 
G00 Z5
G01 Z-4 
G00 Z5
G01 Z-4.6000 F1000
G00 Z5
G01 Z-4.6000 F1000
G01 X-121.8154
G03 X-122.4529 Y26.9678 Z-4.3667 I-0.4250 J0.0000
G03 Y26.2317 Z-4.1333 I0.2125 J-0.3681
G03 X-121.8154 Y26.5998 Z-3.9000 I0.2125 J0.3681
G03 X-122.4529 Y26.9678 Z-3.6667 I-0.4250 J0.0000
G03 Y26.2317 Z-3.4333 I0.2125 J-0.3681
G03 X-121.8154 Y26.5998 Z-3.2000 I0.2125 J0.3681
G03 X-122.4529 Y26.9678 Z-2.9667 I-0.4250 J0.0000
G03 Y26.2317 Z-2.7333 I0.2125 J-0.3681
G03 X-121.8154 Y26.5998 Z-2.5000 I0.2125 J0.3681
G03 X-122.4529 Y26.9678 Z-2.2667 I-0.4250 J0.0000
G03 Y26.2317 Z-2.0333 I0.2125 J-0.3681
G03 X-121.8154 Y26.5998 Z-1.8000 I0.2125 J0.3681
G03 X-122.4529 Y26.9678 Z-1.5667 I-0.4250 J0.0000
G03 Y26.2317 Z-1.3333 I0.2125 J-0.3681
G03 X-121.8154 Y26.5998 Z-1.1000 I0.2125 J0.3681
G03 X-122.4529 Y26.9678 Z-0.8667 I-0.4250 J0.0000
G03 Y26.2317 Z-0.6333 I0.2125 J-0.3681
G03 X-121.8154 Y26.5998 Z-0.4000 I0.2125 J0.3681
G03 X-122.4529 Y26.9678 Z-0.1667 I-0.4250 J0.0000
G03 Y26.2317 Z0.0667 I0.2125 J-0.3681
G03 X-121.8154 Y26.5998 Z0.3000 I0.2125 J0.3681
G03 X-122.4529 Y26.9678 Z0.5333 I-0.4250 J0.0000
G03 Y26.2317 Z0.7667 I0.2125 J-0.3681
G03 X-121.8154 Y26.5998 Z1.0000 I0.2125 J0.3681
G00 Z5.0000


(Nr. 19:  M4 4)
G00 X-69.9131 Y85.4147 Z5.0000
G01 Z-1 F1000
G00 Z5
G01 Z-2 
G00 Z5
G01 Z-3 
G00 Z5
G01 Z-4 
G00 Z5
G01 Z-4.6000 F1000
G00 Z5
G01 Z-4.6000 F1000
G01 X-69.4881
G03 X-70.1256 Y85.7827 Z-4.3667 I-0.4250 J0.0000
G03 Y85.0466 Z-4.1333 I0.2125 J-0.3681
G03 X-69.4881 Y85.4147 Z-3.9000 I0.2125 J0.3681
G03 X-70.1256 Y85.7827 Z-3.6667 I-0.4250 J0.0000
G03 Y85.0466 Z-3.4333 I0.2125 J-0.3681
G03 X-69.4881 Y85.4147 Z-3.2000 I0.2125 J0.3681
G03 X-70.1256 Y85.7827 Z-2.9667 I-0.4250 J0.0000
G03 Y85.0466 Z-2.7333 I0.2125 J-0.3681
G03 X-69.4881 Y85.4147 Z-2.5000 I0.2125 J0.3681
G03 X-70.1256 Y85.7827 Z-2.2667 I-0.4250 J0.0000
G03 Y85.0466 Z-2.0333 I0.2125 J-0.3681
G03 X-69.4881 Y85.4147 Z-1.8000 I0.2125 J0.3681
G03 X-70.1256 Y85.7827 Z-1.5667 I-0.4250 J0.0000
G03 Y85.0466 Z-1.3333 I0.2125 J-0.3681
G03 X-69.4881 Y85.4147 Z-1.1000 I0.2125 J0.3681
G03 X-70.1256 Y85.7827 Z-0.8667 I-0.4250 J0.0000
G03 Y85.0466 Z-0.6333 I0.2125 J-0.3681
G03 X-69.4881 Y85.4147 Z-0.4000 I0.2125 J0.3681
G03 X-70.1256 Y85.7827 Z-0.1667 I-0.4250 J0.0000
G03 Y85.0466 Z0.0667 I0.2125 J-0.3681
G03 X-69.4881 Y85.4147 Z0.3000 I0.2125 J0.3681
G03 X-70.1256 Y85.7827 Z0.5333 I-0.4250 J0.0000
G03 Y85.0466 Z0.7667 I0.2125 J-0.3681
G03 X-69.4881 Y85.4147 Z1.0000 I0.2125 J0.3681
G00 Z5.0000


(Nr. 20:  M4 3)
G00 X-19.4818 Y79.8073 Z5.0000
G01 Z-1 F1000
G00 Z5
G01 Z-2 
G00 Z5
G01 Z-3 
G00 Z5
G01 Z-4 
G00 Z5
G01 Z-4.6000 F1000
G00 Z5
G01 Z-4.6000 F1000
G01 X-19.0568
G03 X-19.6943 Y80.1753 Z-4.3667 I-0.4250 J0.0000
G03 Y79.4392 Z-4.1333 I0.2125 J-0.3681
G03 X-19.0568 Y79.8073 Z-3.9000 I0.2125 J0.3681
G03 X-19.6943 Y80.1753 Z-3.6667 I-0.4250 J0.0000
G03 Y79.4392 Z-3.4333 I0.2125 J-0.3681
G03 X-19.0568 Y79.8073 Z-3.2000 I0.2125 J0.3681
G03 X-19.6943 Y80.1753 Z-2.9667 I-0.4250 J0.0000
G03 Y79.4392 Z-2.7333 I0.2125 J-0.3681
G03 X-19.0568 Y79.8073 Z-2.5000 I0.2125 J0.3681
G03 X-19.6943 Y80.1753 Z-2.2667 I-0.4250 J0.0000
G03 Y79.4392 Z-2.0333 I0.2125 J-0.3681
G03 X-19.0568 Y79.8073 Z-1.8000 I0.2125 J0.3681
G03 X-19.6943 Y80.1753 Z-1.5667 I-0.4250 J0.0000
G03 Y79.4392 Z-1.3333 I0.2125 J-0.3681
G03 X-19.0568 Y79.8073 Z-1.1000 I0.2125 J0.3681
G03 X-19.6943 Y80.1753 Z-0.8667 I-0.4250 J0.0000
G03 Y79.4392 Z-0.6333 I0.2125 J-0.3681
G03 X-19.0568 Y79.8073 Z-0.4000 I0.2125 J0.3681
G03 X-19.6943 Y80.1753 Z-0.1667 I-0.4250 J0.0000
G03 Y79.4392 Z0.0667 I0.2125 J-0.3681
G03 X-19.0568 Y79.8073 Z0.3000 I0.2125 J0.3681
G03 X-19.6943 Y80.1753 Z0.5333 I-0.4250 J0.0000
G03 Y79.4392 Z0.7667 I0.2125 J-0.3681
G03 X-19.0568 Y79.8073 Z1.0000 I0.2125 J0.3681
G00 Z5.0000


(Nr. 21:  M4 2)
G00 X-5.9930 Y79.2745 Z5.0000
G01 Z-1 F1000
G00 Z5
G01 Z-2 
G00 Z5
G01 Z-3 
G00 Z5
G01 Z-4 
G00 Z5
G01 Z-4.6000 F1000
G00 Z5
G01 Z-4.6000 F1000
G01 X-5.5680
G03 X-6.2055 Y79.6426 Z-4.3667 I-0.4250 J0.0000
G03 Y78.9065 Z-4.1333 I0.2125 J-0.3681
G03 X-5.5680 Y79.2745 Z-3.9000 I0.2125 J0.3681
G03 X-6.2055 Y79.6426 Z-3.6667 I-0.4250 J0.0000
G03 Y78.9065 Z-3.4333 I0.2125 J-0.3681
G03 X-5.5680 Y79.2745 Z-3.2000 I0.2125 J0.3681
G03 X-6.2055 Y79.6426 Z-2.9667 I-0.4250 J0.0000
G03 Y78.9065 Z-2.7333 I0.2125 J-0.3681
G03 X-5.5680 Y79.2745 Z-2.5000 I0.2125 J0.3681
G03 X-6.2055 Y79.6426 Z-2.2667 I-0.4250 J0.0000
G03 Y78.9065 Z-2.0333 I0.2125 J-0.3681
G03 X-5.5680 Y79.2745 Z-1.8000 I0.2125 J0.3681
G03 X-6.2055 Y79.6426 Z-1.5667 I-0.4250 J0.0000
G03 Y78.9065 Z-1.3333 I0.2125 J-0.3681
G03 X-5.5680 Y79.2745 Z-1.1000 I0.2125 J0.3681
G03 X-6.2055 Y79.6426 Z-0.8667 I-0.4250 J0.0000
G03 Y78.9065 Z-0.6333 I0.2125 J-0.3681
G03 X-5.5680 Y79.2745 Z-0.4000 I0.2125 J0.3681
G03 X-6.2055 Y79.6426 Z-0.1667 I-0.4250 J0.0000
G03 Y78.9065 Z0.0667 I0.2125 J-0.3681
G03 X-5.5680 Y79.2745 Z0.3000 I0.2125 J0.3681
G03 X-6.2055 Y79.6426 Z0.5333 I-0.4250 J0.0000
G03 Y78.9065 Z0.7667 I0.2125 J-0.3681
G03 X-5.5680 Y79.2745 Z1.0000 I0.2125 J0.3681
G00 Z5.0000

(Koordinaten nach Oben verschieben)
G00 Z25.0000
G00 X0 Y0
G92 X0 Y-217
G00 Y0

G00 Z25
G00 X-45.1415 Y10.6905 
G00 Z0.5
G01 Z-1 F1000
G00 Z5
G01 Z-2 
G00 Z5
G01 Z-3 
G00 Z5
G01 Z-4 
G00 Z5
G01 Z-4.6000 F1000 S15000
G00 Z5
G01 Z-4.6000 F1000
G01 X-44.7165
G03 X-45.3540 Y11.0585 Z-4.3667 I-0.4250 J0.0000
G03 Y10.3224 Z-4.1333 I0.2125 J-0.3681
G03 X-44.7165 Y10.6905 Z-3.9000 I0.2125 J0.3681
G03 X-45.3540 Y11.0585 Z-3.6667 I-0.4250 J0.0000
G03 Y10.3224 Z-3.4333 I0.2125 J-0.3681
G03 X-44.7165 Y10.6905 Z-3.2000 I0.2125 J0.3681
G03 X-45.3540 Y11.0585 Z-2.9667 I-0.4250 J0.0000
G03 Y10.3224 Z-2.7333 I0.2125 J-0.3681
G03 X-44.7165 Y10.6905 Z-2.5000 I0.2125 J0.3681
G03 X-45.3540 Y11.0585 Z-2.2667 I-0.4250 J0.0000
G03 Y10.3224 Z-2.0333 I0.2125 J-0.3681
G03 X-44.7165 Y10.6905 Z-1.8000 I0.2125 J0.3681
G03 X-45.3540 Y11.0585 Z-1.5667 I-0.4250 J0.0000
G03 Y10.3224 Z-1.3333 I0.2125 J-0.3681
G03 X-44.7165 Y10.6905 Z-1.1000 I0.2125 J0.3681
G03 X-45.3540 Y11.0585 Z-0.8667 I-0.4250 J0.0000
G03 Y10.3224 Z-0.6333 I0.2125 J-0.3681
G03 X-44.7165 Y10.6905 Z-0.4000 I0.2125 J0.3681
G03 X-45.3540 Y11.0585 Z-0.1667 I-0.4250 J0.0000
G03 Y10.3224 Z0.0667 I0.2125 J-0.3681
G03 X-44.7165 Y10.6905 Z0.3000 I0.2125 J0.3681
G03 X-45.3540 Y11.0585 Z0.5333 I-0.4250 J0.0000
G03 Y10.3224 Z0.7667 I0.2125 J-0.3681
G03 X-44.7165 Y10.6905 Z1.0000 I0.2125 J0.3681
G00 Z5.0000


(Nr. 17:  M4 5)
G00 X-79.0983 Y40.9016 Z5.0000
G01 Z-1 F1000
G00 Z5
G01 Z-2 
G00 Z5
G01 Z-3 
G00 Z5
G01 Z-4 
G00 Z5
G01 Z-4.6000 F1000
G00 Z5
G01 Z-4.6000 F1000
G01 X-78.6733
G03 X-79.3108 Y41.2697 Z-4.3667 I-0.4250 J0.0000
G03 Y40.5336 Z-4.1333 I0.2125 J-0.3681
G03 X-78.6733 Y40.9016 Z-3.9000 I0.2125 J0.3681
G03 X-79.3108 Y41.2697 Z-3.6667 I-0.4250 J0.0000
G03 Y40.5336 Z-3.4333 I0.2125 J-0.3681
G03 X-78.6733 Y40.9016 Z-3.2000 I0.2125 J0.3681
G03 X-79.3108 Y41.2697 Z-2.9667 I-0.4250 J0.0000
G03 Y40.5336 Z-2.7333 I0.2125 J-0.3681
G03 X-78.6733 Y40.9016 Z-2.5000 I0.2125 J0.3681
G03 X-79.3108 Y41.2697 Z-2.2667 I-0.4250 J0.0000
G03 Y40.5336 Z-2.0333 I0.2125 J-0.3681
G03 X-78.6733 Y40.9016 Z-1.8000 I0.2125 J0.3681
G03 X-79.3108 Y41.2697 Z-1.5667 I-0.4250 J0.0000
G03 Y40.5336 Z-1.3333 I0.2125 J-0.3681
G03 X-78.6733 Y40.9016 Z-1.1000 I0.2125 J0.3681
G03 X-79.3108 Y41.2697 Z-0.8667 I-0.4250 J0.0000
G03 Y40.5336 Z-0.6333 I0.2125 J-0.3681
G03 X-78.6733 Y40.9016 Z-0.4000 I0.2125 J0.3681
G03 X-79.3108 Y41.2697 Z-0.1667 I-0.4250 J0.0000
G03 Y40.5336 Z0.0667 I0.2125 J-0.3681
G03 X-78.6733 Y40.9016 Z0.3000 I0.2125 J0.3681
G03 X-79.3108 Y41.2697 Z0.5333 I-0.4250 J0.0000
G03 Y40.5336 Z0.7667 I0.2125 J-0.3681
G03 X-78.6733 Y40.9016 Z1.0000 I0.2125 J0.3681
G00 Z5.0000


(Nr. 18:  M4 6)
G00 X-122.2404 Y26.5998 Z5.0000
G01 Z-1 F1000
G00 Z5
G01 Z-2 
G00 Z5
G01 Z-3 
G00 Z5
G01 Z-4 
G00 Z5
G01 Z-4.6000 F1000
G00 Z5
G01 Z-4.6000 F1000
G01 X-121.8154
G03 X-122.4529 Y26.9678 Z-4.3667 I-0.4250 J0.0000
G03 Y26.2317 Z-4.1333 I0.2125 J-0.3681
G03 X-121.8154 Y26.5998 Z-3.9000 I0.2125 J0.3681
G03 X-122.4529 Y26.9678 Z-3.6667 I-0.4250 J0.0000
G03 Y26.2317 Z-3.4333 I0.2125 J-0.3681
G03 X-121.8154 Y26.5998 Z-3.2000 I0.2125 J0.3681
G03 X-122.4529 Y26.9678 Z-2.9667 I-0.4250 J0.0000
G03 Y26.2317 Z-2.7333 I0.2125 J-0.3681
G03 X-121.8154 Y26.5998 Z-2.5000 I0.2125 J0.3681
G03 X-122.4529 Y26.9678 Z-2.2667 I-0.4250 J0.0000
G03 Y26.2317 Z-2.0333 I0.2125 J-0.3681
G03 X-121.8154 Y26.5998 Z-1.8000 I0.2125 J0.3681
G03 X-122.4529 Y26.9678 Z-1.5667 I-0.4250 J0.0000
G03 Y26.2317 Z-1.3333 I0.2125 J-0.3681
G03 X-121.8154 Y26.5998 Z-1.1000 I0.2125 J0.3681
G03 X-122.4529 Y26.9678 Z-0.8667 I-0.4250 J0.0000
G03 Y26.2317 Z-0.6333 I0.2125 J-0.3681
G03 X-121.8154 Y26.5998 Z-0.4000 I0.2125 J0.3681
G03 X-122.4529 Y26.9678 Z-0.1667 I-0.4250 J0.0000
G03 Y26.2317 Z0.0667 I0.2125 J-0.3681
G03 X-121.8154 Y26.5998 Z0.3000 I0.2125 J0.3681
G03 X-122.4529 Y26.9678 Z0.5333 I-0.4250 J0.0000
G03 Y26.2317 Z0.7667 I0.2125 J-0.3681
G03 X-121.8154 Y26.5998 Z1.0000 I0.2125 J0.3681
G00 Z5.0000


(Nr. 19:  M4 4)
G00 X-69.9131 Y85.4147 Z5.0000
G01 Z-1 F1000
G00 Z5
G01 Z-2 
G00 Z5
G01 Z-3 
G00 Z5
G01 Z-4 
G00 Z5
G01 Z-4.6000 F1000
G00 Z5
G01 Z-4.6000 F1000
G01 X-69.4881
G03 X-70.1256 Y85.7827 Z-4.3667 I-0.4250 J0.0000
G03 Y85.0466 Z-4.1333 I0.2125 J-0.3681
G03 X-69.4881 Y85.4147 Z-3.9000 I0.2125 J0.3681
G03 X-70.1256 Y85.7827 Z-3.6667 I-0.4250 J0.0000
G03 Y85.0466 Z-3.4333 I0.2125 J-0.3681
G03 X-69.4881 Y85.4147 Z-3.2000 I0.2125 J0.3681
G03 X-70.1256 Y85.7827 Z-2.9667 I-0.4250 J0.0000
G03 Y85.0466 Z-2.7333 I0.2125 J-0.3681
G03 X-69.4881 Y85.4147 Z-2.5000 I0.2125 J0.3681
G03 X-70.1256 Y85.7827 Z-2.2667 I-0.4250 J0.0000
G03 Y85.0466 Z-2.0333 I0.2125 J-0.3681
G03 X-69.4881 Y85.4147 Z-1.8000 I0.2125 J0.3681
G03 X-70.1256 Y85.7827 Z-1.5667 I-0.4250 J0.0000
G03 Y85.0466 Z-1.3333 I0.2125 J-0.3681
G03 X-69.4881 Y85.4147 Z-1.1000 I0.2125 J0.3681
G03 X-70.1256 Y85.7827 Z-0.8667 I-0.4250 J0.0000
G03 Y85.0466 Z-0.6333 I0.2125 J-0.3681
G03 X-69.4881 Y85.4147 Z-0.4000 I0.2125 J0.3681
G03 X-70.1256 Y85.7827 Z-0.1667 I-0.4250 J0.0000
G03 Y85.0466 Z0.0667 I0.2125 J-0.3681
G03 X-69.4881 Y85.4147 Z0.3000 I0.2125 J0.3681
G03 X-70.1256 Y85.7827 Z0.5333 I-0.4250 J0.0000
G03 Y85.0466 Z0.7667 I0.2125 J-0.3681
G03 X-69.4881 Y85.4147 Z1.0000 I0.2125 J0.3681
G00 Z5.0000


(Nr. 20:  M4 3)
G00 X-19.4818 Y79.8073 Z5.0000
G01 Z-1 F1000
G00 Z5
G01 Z-2 
G00 Z5
G01 Z-3 
G00 Z5
G01 Z-4 
G00 Z5
G01 Z-4.6000 F1000
G00 Z5
G01 Z-4.6000 F1000
G01 X-19.0568
G03 X-19.6943 Y80.1753 Z-4.3667 I-0.4250 J0.0000
G03 Y79.4392 Z-4.1333 I0.2125 J-0.3681
G03 X-19.0568 Y79.8073 Z-3.9000 I0.2125 J0.3681
G03 X-19.6943 Y80.1753 Z-3.6667 I-0.4250 J0.0000
G03 Y79.4392 Z-3.4333 I0.2125 J-0.3681
G03 X-19.0568 Y79.8073 Z-3.2000 I0.2125 J0.3681
G03 X-19.6943 Y80.1753 Z-2.9667 I-0.4250 J0.0000
G03 Y79.4392 Z-2.7333 I0.2125 J-0.3681
G03 X-19.0568 Y79.8073 Z-2.5000 I0.2125 J0.3681
G03 X-19.6943 Y80.1753 Z-2.2667 I-0.4250 J0.0000
G03 Y79.4392 Z-2.0333 I0.2125 J-0.3681
G03 X-19.0568 Y79.8073 Z-1.8000 I0.2125 J0.3681
G03 X-19.6943 Y80.1753 Z-1.5667 I-0.4250 J0.0000
G03 Y79.4392 Z-1.3333 I0.2125 J-0.3681
G03 X-19.0568 Y79.8073 Z-1.1000 I0.2125 J0.3681
G03 X-19.6943 Y80.1753 Z-0.8667 I-0.4250 J0.0000
G03 Y79.4392 Z-0.6333 I0.2125 J-0.3681
G03 X-19.0568 Y79.8073 Z-0.4000 I0.2125 J0.3681
G03 X-19.6943 Y80.1753 Z-0.1667 I-0.4250 J0.0000
G03 Y79.4392 Z0.0667 I0.2125 J-0.3681
G03 X-19.0568 Y79.8073 Z0.3000 I0.2125 J0.3681
G03 X-19.6943 Y80.1753 Z0.5333 I-0.4250 J0.0000
G03 Y79.4392 Z0.7667 I0.2125 J-0.3681
G03 X-19.0568 Y79.8073 Z1.0000 I0.2125 J0.3681
G00 Z5.0000


(Nr. 21:  M4 2)
G00 X-5.9930 Y79.2745 Z5.0000
G01 Z-1 F1000
G00 Z5
G01 Z-2 
G00 Z5
G01 Z-3 
G00 Z5
G01 Z-4 
G00 Z5
G01 Z-4.6000 F1000
G00 Z5
G01 Z-4.6000 F1000
G01 X-5.5680
G03 X-6.2055 Y79.6426 Z-4.3667 I-0.4250 J0.0000
G03 Y78.9065 Z-4.1333 I0.2125 J-0.3681
G03 X-5.5680 Y79.2745 Z-3.9000 I0.2125 J0.3681
G03 X-6.2055 Y79.6426 Z-3.6667 I-0.4250 J0.0000
G03 Y78.9065 Z-3.4333 I0.2125 J-0.3681
G03 X-5.5680 Y79.2745 Z-3.2000 I0.2125 J0.3681
G03 X-6.2055 Y79.6426 Z-2.9667 I-0.4250 J0.0000
G03 Y78.9065 Z-2.7333 I0.2125 J-0.3681
G03 X-5.5680 Y79.2745 Z-2.5000 I0.2125 J0.3681
G03 X-6.2055 Y79.6426 Z-2.2667 I-0.4250 J0.0000
G03 Y78.9065 Z-2.0333 I0.2125 J-0.3681
G03 X-5.5680 Y79.2745 Z-1.8000 I0.2125 J0.3681
G03 X-6.2055 Y79.6426 Z-1.5667 I-0.4250 J0.0000
G03 Y78.9065 Z-1.3333 I0.2125 J-0.3681
G03 X-5.5680 Y79.2745 Z-1.1000 I0.2125 J0.3681
G03 X-6.2055 Y79.6426 Z-0.8667 I-0.4250 J0.0000
G03 Y78.9065 Z-0.6333 I0.2125 J-0.3681
G03 X-5.5680 Y79.2745 Z-0.4000 I0.2125 J0.3681
G03 X-6.2055 Y79.6426 Z-0.1667 I-0.4250 J0.0000
G03 Y78.9065 Z0.0667 I0.2125 J-0.3681
G03 X-5.5680 Y79.2745 Z0.3000 I0.2125 J0.3681
G03 X-6.2055 Y79.6426 Z0.5333 I-0.4250 J0.0000
G03 Y78.9065 Z0.7667 I0.2125 J-0.3681
G03 X-5.5680 Y79.2745 Z1.0000 I0.2125 J0.3681
G00 Z5.0000

(Koordinaten nach Oben verschieben)
G00 Z25.0000
G00 X0 Y0
G92 X0 Y-217
G00 Y0

G00 Z25
G00 X-45.1415 Y10.6905 
G00 Z0.5
G01 Z-1 F1000
G00 Z5
G01 Z-2 
G00 Z5
G01 Z-3 
G00 Z5
G01 Z-4 
G00 Z5
G01 Z-4.6000 F1000 S15000
G00 Z5
G01 Z-4.6000 F1000
G01 X-44.7165
G03 X-45.3540 Y11.0585 Z-4.3667 I-0.4250 J0.0000
G03 Y10.3224 Z-4.1333 I0.2125 J-0.3681
G03 X-44.7165 Y10.6905 Z-3.9000 I0.2125 J0.3681
G03 X-45.3540 Y11.0585 Z-3.6667 I-0.4250 J0.0000
G03 Y10.3224 Z-3.4333 I0.2125 J-0.3681
G03 X-44.7165 Y10.6905 Z-3.2000 I0.2125 J0.3681
G03 X-45.3540 Y11.0585 Z-2.9667 I-0.4250 J0.0000
G03 Y10.3224 Z-2.7333 I0.2125 J-0.3681
G03 X-44.7165 Y10.6905 Z-2.5000 I0.2125 J0.3681
G03 X-45.3540 Y11.0585 Z-2.2667 I-0.4250 J0.0000
G03 Y10.3224 Z-2.0333 I0.2125 J-0.3681
G03 X-44.7165 Y10.6905 Z-1.8000 I0.2125 J0.3681
G03 X-45.3540 Y11.0585 Z-1.5667 I-0.4250 J0.0000
G03 Y10.3224 Z-1.3333 I0.2125 J-0.3681
G03 X-44.7165 Y10.6905 Z-1.1000 I0.2125 J0.3681
G03 X-45.3540 Y11.0585 Z-0.8667 I-0.4250 J0.0000
G03 Y10.3224 Z-0.6333 I0.2125 J-0.3681
G03 X-44.7165 Y10.6905 Z-0.4000 I0.2125 J0.3681
G03 X-45.3540 Y11.0585 Z-0.1667 I-0.4250 J0.0000
G03 Y10.3224 Z0.0667 I0.2125 J-0.3681
G03 X-44.7165 Y10.6905 Z0.3000 I0.2125 J0.3681
G03 X-45.3540 Y11.0585 Z0.5333 I-0.4250 J0.0000
G03 Y10.3224 Z0.7667 I0.2125 J-0.3681
G03 X-44.7165 Y10.6905 Z1.0000 I0.2125 J0.3681
G00 Z5.0000


(Nr. 17:  M4 5)
G00 X-79.0983 Y40.9016 Z5.0000
G01 Z-1 F1000
G00 Z5
G01 Z-2 
G00 Z5
G01 Z-3 
G00 Z5
G01 Z-4 
G00 Z5
G01 Z-4.6000 F1000
G00 Z5
G01 Z-4.6000 F1000
G01 X-78.6733
G03 X-79.3108 Y41.2697 Z-4.3667 I-0.4250 J0.0000
G03 Y40.5336 Z-4.1333 I0.2125 J-0.3681
G03 X-78.6733 Y40.9016 Z-3.9000 I0.2125 J0.3681
G03 X-79.3108 Y41.2697 Z-3.6667 I-0.4250 J0.0000
G03 Y40.5336 Z-3.4333 I0.2125 J-0.3681
G03 X-78.6733 Y40.9016 Z-3.2000 I0.2125 J0.3681
G03 X-79.3108 Y41.2697 Z-2.9667 I-0.4250 J0.0000
G03 Y40.5336 Z-2.7333 I0.2125 J-0.3681
G03 X-78.6733 Y40.9016 Z-2.5000 I0.2125 J0.3681
G03 X-79.3108 Y41.2697 Z-2.2667 I-0.4250 J0.0000
G03 Y40.5336 Z-2.0333 I0.2125 J-0.3681
G03 X-78.6733 Y40.9016 Z-1.8000 I0.2125 J0.3681
G03 X-79.3108 Y41.2697 Z-1.5667 I-0.4250 J0.0000
G03 Y40.5336 Z-1.3333 I0.2125 J-0.3681
G03 X-78.6733 Y40.9016 Z-1.1000 I0.2125 J0.3681
G03 X-79.3108 Y41.2697 Z-0.8667 I-0.4250 J0.0000
G03 Y40.5336 Z-0.6333 I0.2125 J-0.3681
G03 X-78.6733 Y40.9016 Z-0.4000 I0.2125 J0.3681
G03 X-79.3108 Y41.2697 Z-0.1667 I-0.4250 J0.0000
G03 Y40.5336 Z0.0667 I0.2125 J-0.3681
G03 X-78.6733 Y40.9016 Z0.3000 I0.2125 J0.3681
G03 X-79.3108 Y41.2697 Z0.5333 I-0.4250 J0.0000
G03 Y40.5336 Z0.7667 I0.2125 J-0.3681
G03 X-78.6733 Y40.9016 Z1.0000 I0.2125 J0.3681
G00 Z5.0000


(Nr. 18:  M4 6)
G00 X-122.2404 Y26.5998 Z5.0000
G01 Z-1 F1000
G00 Z5
G01 Z-2 
G00 Z5
G01 Z-3 
G00 Z5
G01 Z-4 
G00 Z5
G01 Z-4.6000 F1000
G00 Z5
G01 Z-4.6000 F1000
G01 X-121.8154
G03 X-122.4529 Y26.9678 Z-4.3667 I-0.4250 J0.0000
G03 Y26.2317 Z-4.1333 I0.2125 J-0.3681
G03 X-121.8154 Y26.5998 Z-3.9000 I0.2125 J0.3681
G03 X-122.4529 Y26.9678 Z-3.6667 I-0.4250 J0.0000
G03 Y26.2317 Z-3.4333 I0.2125 J-0.3681
G03 X-121.8154 Y26.5998 Z-3.2000 I0.2125 J0.3681
G03 X-122.4529 Y26.9678 Z-2.9667 I-0.4250 J0.0000
G03 Y26.2317 Z-2.7333 I0.2125 J-0.3681
G03 X-121.8154 Y26.5998 Z-2.5000 I0.2125 J0.3681
G03 X-122.4529 Y26.9678 Z-2.2667 I-0.4250 J0.0000
G03 Y26.2317 Z-2.0333 I0.2125 J-0.3681
G03 X-121.8154 Y26.5998 Z-1.8000 I0.2125 J0.3681
G03 X-122.4529 Y26.9678 Z-1.5667 I-0.4250 J0.0000
G03 Y26.2317 Z-1.3333 I0.2125 J-0.3681
G03 X-121.8154 Y26.5998 Z-1.1000 I0.2125 J0.3681
G03 X-122.4529 Y26.9678 Z-0.8667 I-0.4250 J0.0000
G03 Y26.2317 Z-0.6333 I0.2125 J-0.3681
G03 X-121.8154 Y26.5998 Z-0.4000 I0.2125 J0.3681
G03 X-122.4529 Y26.9678 Z-0.1667 I-0.4250 J0.0000
G03 Y26.2317 Z0.0667 I0.2125 J-0.3681
G03 X-121.8154 Y26.5998 Z0.3000 I0.2125 J0.3681
G03 X-122.4529 Y26.9678 Z0.5333 I-0.4250 J0.0000
G03 Y26.2317 Z0.7667 I0.2125 J-0.3681
G03 X-121.8154 Y26.5998 Z1.0000 I0.2125 J0.3681
G00 Z5.0000


(Nr. 19:  M4 4)
G00 X-69.9131 Y85.4147 Z5.0000
G01 Z-1 F1000
G00 Z5
G01 Z-2 
G00 Z5
G01 Z-3 
G00 Z5
G01 Z-4 
G00 Z5
G01 Z-4.6000 F1000
G00 Z5
G01 Z-4.6000 F1000
G01 X-69.4881
G03 X-70.1256 Y85.7827 Z-4.3667 I-0.4250 J0.0000
G03 Y85.0466 Z-4.1333 I0.2125 J-0.3681
G03 X-69.4881 Y85.4147 Z-3.9000 I0.2125 J0.3681
G03 X-70.1256 Y85.7827 Z-3.6667 I-0.4250 J0.0000
G03 Y85.0466 Z-3.4333 I0.2125 J-0.3681
G03 X-69.4881 Y85.4147 Z-3.2000 I0.2125 J0.3681
G03 X-70.1256 Y85.7827 Z-2.9667 I-0.4250 J0.0000
G03 Y85.0466 Z-2.7333 I0.2125 J-0.3681
G03 X-69.4881 Y85.4147 Z-2.5000 I0.2125 J0.3681
G03 X-70.1256 Y85.7827 Z-2.2667 I-0.4250 J0.0000
G03 Y85.0466 Z-2.0333 I0.2125 J-0.3681
G03 X-69.4881 Y85.4147 Z-1.8000 I0.2125 J0.3681
G03 X-70.1256 Y85.7827 Z-1.5667 I-0.4250 J0.0000
G03 Y85.0466 Z-1.3333 I0.2125 J-0.3681
G03 X-69.4881 Y85.4147 Z-1.1000 I0.2125 J0.3681
G03 X-70.1256 Y85.7827 Z-0.8667 I-0.4250 J0.0000
G03 Y85.0466 Z-0.6333 I0.2125 J-0.3681
G03 X-69.4881 Y85.4147 Z-0.4000 I0.2125 J0.3681
G03 X-70.1256 Y85.7827 Z-0.1667 I-0.4250 J0.0000
G03 Y85.0466 Z0.0667 I0.2125 J-0.3681
G03 X-69.4881 Y85.4147 Z0.3000 I0.2125 J0.3681
G03 X-70.1256 Y85.7827 Z0.5333 I-0.4250 J0.0000
G03 Y85.0466 Z0.7667 I0.2125 J-0.3681
G03 X-69.4881 Y85.4147 Z1.0000 I0.2125 J0.3681
G00 Z5.0000


(Nr. 20:  M4 3)
G00 X-19.4818 Y79.8073 Z5.0000
G01 Z-1 F1000
G00 Z5
G01 Z-2 
G00 Z5
G01 Z-3 
G00 Z5
G01 Z-4 
G00 Z5
G01 Z-4.6000 F1000
G00 Z5
G01 Z-4.6000 F1000
G01 X-19.0568
G03 X-19.6943 Y80.1753 Z-4.3667 I-0.4250 J0.0000
G03 Y79.4392 Z-4.1333 I0.2125 J-0.3681
G03 X-19.0568 Y79.8073 Z-3.9000 I0.2125 J0.3681
G03 X-19.6943 Y80.1753 Z-3.6667 I-0.4250 J0.0000
G03 Y79.4392 Z-3.4333 I0.2125 J-0.3681
G03 X-19.0568 Y79.8073 Z-3.2000 I0.2125 J0.3681
G03 X-19.6943 Y80.1753 Z-2.9667 I-0.4250 J0.0000
G03 Y79.4392 Z-2.7333 I0.2125 J-0.3681
G03 X-19.0568 Y79.8073 Z-2.5000 I0.2125 J0.3681
G03 X-19.6943 Y80.1753 Z-2.2667 I-0.4250 J0.0000
G03 Y79.4392 Z-2.0333 I0.2125 J-0.3681
G03 X-19.0568 Y79.8073 Z-1.8000 I0.2125 J0.3681
G03 X-19.6943 Y80.1753 Z-1.5667 I-0.4250 J0.0000
G03 Y79.4392 Z-1.3333 I0.2125 J-0.3681
G03 X-19.0568 Y79.8073 Z-1.1000 I0.2125 J0.3681
G03 X-19.6943 Y80.1753 Z-0.8667 I-0.4250 J0.0000
G03 Y79.4392 Z-0.6333 I0.2125 J-0.3681
G03 X-19.0568 Y79.8073 Z-0.4000 I0.2125 J0.3681
G03 X-19.6943 Y80.1753 Z-0.1667 I-0.4250 J0.0000
G03 Y79.4392 Z0.0667 I0.2125 J-0.3681
G03 X-19.0568 Y79.8073 Z0.3000 I0.2125 J0.3681
G03 X-19.6943 Y80.1753 Z0.5333 I-0.4250 J0.0000
G03 Y79.4392 Z0.7667 I0.2125 J-0.3681
G03 X-19.0568 Y79.8073 Z1.0000 I0.2125 J0.3681
G00 Z5.0000


(Nr. 21:  M4 2)
G00 X-5.9930 Y79.2745 Z5.0000
G01 Z-1 F1000
G00 Z5
G01 Z-2 
G00 Z5
G01 Z-3 
G00 Z5
G01 Z-4 
G00 Z5
G01 Z-4.6000 F1000
G00 Z5
G01 Z-4.6000 F1000
G01 X-5.5680
G03 X-6.2055 Y79.6426 Z-4.3667 I-0.4250 J0.0000
G03 Y78.9065 Z-4.1333 I0.2125 J-0.3681
G03 X-5.5680 Y79.2745 Z-3.9000 I0.2125 J0.3681
G03 X-6.2055 Y79.6426 Z-3.6667 I-0.4250 J0.0000
G03 Y78.9065 Z-3.4333 I0.2125 J-0.3681
G03 X-5.5680 Y79.2745 Z-3.2000 I0.2125 J0.3681
G03 X-6.2055 Y79.6426 Z-2.9667 I-0.4250 J0.0000
G03 Y78.9065 Z-2.7333 I0.2125 J-0.3681
G03 X-5.5680 Y79.2745 Z-2.5000 I0.2125 J0.3681
G03 X-6.2055 Y79.6426 Z-2.2667 I-0.4250 J0.0000
G03 Y78.9065 Z-2.0333 I0.2125 J-0.3681
G03 X-5.5680 Y79.2745 Z-1.8000 I0.2125 J0.3681
G03 X-6.2055 Y79.6426 Z-1.5667 I-0.4250 J0.0000
G03 Y78.9065 Z-1.3333 I0.2125 J-0.3681
G03 X-5.5680 Y79.2745 Z-1.1000 I0.2125 J0.3681
G03 X-6.2055 Y79.6426 Z-0.8667 I-0.4250 J0.0000
G03 Y78.9065 Z-0.6333 I0.2125 J-0.3681
G03 X-5.5680 Y79.2745 Z-0.4000 I0.2125 J0.3681
G03 X-6.2055 Y79.6426 Z-0.1667 I-0.4250 J0.0000
G03 Y78.9065 Z0.0667 I0.2125 J-0.3681
G03 X-5.5680 Y79.2745 Z0.3000 I0.2125 J0.3681
G03 X-6.2055 Y79.6426 Z0.5333 I-0.4250 J0.0000
G03 Y78.9065 Z0.7667 I0.2125 J-0.3681
G03 X-5.5680 Y79.2745 Z1.0000 I0.2125 J0.3681
G00 Z5.0000

(Koordinaten nach Rechts verschieben)
G00 Z25.0000
G00 X0 Y0
G92 X-150 Y0
G00 X0

G00 Z25
G00 X-45.1415 Y10.6905 
G00 Z0.5
G01 Z-1 F1000
G00 Z5
G01 Z-2 
G00 Z5
G01 Z-3 
G00 Z5
G01 Z-4 
G00 Z5
G01 Z-4.6000 F1000 S15000
G00 Z5
G01 Z-4.6000 F1000
G01 X-44.7165
G03 X-45.3540 Y11.0585 Z-4.3667 I-0.4250 J0.0000
G03 Y10.3224 Z-4.1333 I0.2125 J-0.3681
G03 X-44.7165 Y10.6905 Z-3.9000 I0.2125 J0.3681
G03 X-45.3540 Y11.0585 Z-3.6667 I-0.4250 J0.0000
G03 Y10.3224 Z-3.4333 I0.2125 J-0.3681
G03 X-44.7165 Y10.6905 Z-3.2000 I0.2125 J0.3681
G03 X-45.3540 Y11.0585 Z-2.9667 I-0.4250 J0.0000
G03 Y10.3224 Z-2.7333 I0.2125 J-0.3681
G03 X-44.7165 Y10.6905 Z-2.5000 I0.2125 J0.3681
G03 X-45.3540 Y11.0585 Z-2.2667 I-0.4250 J0.0000
G03 Y10.3224 Z-2.0333 I0.2125 J-0.3681
G03 X-44.7165 Y10.6905 Z-1.8000 I0.2125 J0.3681
G03 X-45.3540 Y11.0585 Z-1.5667 I-0.4250 J0.0000
G03 Y10.3224 Z-1.3333 I0.2125 J-0.3681
G03 X-44.7165 Y10.6905 Z-1.1000 I0.2125 J0.3681
G03 X-45.3540 Y11.0585 Z-0.8667 I-0.4250 J0.0000
G03 Y10.3224 Z-0.6333 I0.2125 J-0.3681
G03 X-44.7165 Y10.6905 Z-0.4000 I0.2125 J0.3681
G03 X-45.3540 Y11.0585 Z-0.1667 I-0.4250 J0.0000
G03 Y10.3224 Z0.0667 I0.2125 J-0.3681
G03 X-44.7165 Y10.6905 Z0.3000 I0.2125 J0.3681
G03 X-45.3540 Y11.0585 Z0.5333 I-0.4250 J0.0000
G03 Y10.3224 Z0.7667 I0.2125 J-0.3681
G03 X-44.7165 Y10.6905 Z1.0000 I0.2125 J0.3681
G00 Z5.0000


(Nr. 17:  M4 5)
G00 X-79.0983 Y40.9016 Z5.0000
G01 Z-1 F1000
G00 Z5
G01 Z-2 
G00 Z5
G01 Z-3 
G00 Z5
G01 Z-4 
G00 Z5
G01 Z-4.6000 F1000
G00 Z5
G01 Z-4.6000 F1000
G01 X-78.6733
G03 X-79.3108 Y41.2697 Z-4.3667 I-0.4250 J0.0000
G03 Y40.5336 Z-4.1333 I0.2125 J-0.3681
G03 X-78.6733 Y40.9016 Z-3.9000 I0.2125 J0.3681
G03 X-79.3108 Y41.2697 Z-3.6667 I-0.4250 J0.0000
G03 Y40.5336 Z-3.4333 I0.2125 J-0.3681
G03 X-78.6733 Y40.9016 Z-3.2000 I0.2125 J0.3681
G03 X-79.3108 Y41.2697 Z-2.9667 I-0.4250 J0.0000
G03 Y40.5336 Z-2.7333 I0.2125 J-0.3681
G03 X-78.6733 Y40.9016 Z-2.5000 I0.2125 J0.3681
G03 X-79.3108 Y41.2697 Z-2.2667 I-0.4250 J0.0000
G03 Y40.5336 Z-2.0333 I0.2125 J-0.3681
G03 X-78.6733 Y40.9016 Z-1.8000 I0.2125 J0.3681
G03 X-79.3108 Y41.2697 Z-1.5667 I-0.4250 J0.0000
G03 Y40.5336 Z-1.3333 I0.2125 J-0.3681
G03 X-78.6733 Y40.9016 Z-1.1000 I0.2125 J0.3681
G03 X-79.3108 Y41.2697 Z-0.8667 I-0.4250 J0.0000
G03 Y40.5336 Z-0.6333 I0.2125 J-0.3681
G03 X-78.6733 Y40.9016 Z-0.4000 I0.2125 J0.3681
G03 X-79.3108 Y41.2697 Z-0.1667 I-0.4250 J0.0000
G03 Y40.5336 Z0.0667 I0.2125 J-0.3681
G03 X-78.6733 Y40.9016 Z0.3000 I0.2125 J0.3681
G03 X-79.3108 Y41.2697 Z0.5333 I-0.4250 J0.0000
G03 Y40.5336 Z0.7667 I0.2125 J-0.3681
G03 X-78.6733 Y40.9016 Z1.0000 I0.2125 J0.3681
G00 Z5.0000


(Nr. 18:  M4 6)
G00 X-122.2404 Y26.5998 Z5.0000
G01 Z-1 F1000
G00 Z5
G01 Z-2 
G00 Z5
G01 Z-3 
G00 Z5
G01 Z-4 
G00 Z5
G01 Z-4.6000 F1000
G00 Z5
G01 Z-4.6000 F1000
G01 X-121.8154
G03 X-122.4529 Y26.9678 Z-4.3667 I-0.4250 J0.0000
G03 Y26.2317 Z-4.1333 I0.2125 J-0.3681
G03 X-121.8154 Y26.5998 Z-3.9000 I0.2125 J0.3681
G03 X-122.4529 Y26.9678 Z-3.6667 I-0.4250 J0.0000
G03 Y26.2317 Z-3.4333 I0.2125 J-0.3681
G03 X-121.8154 Y26.5998 Z-3.2000 I0.2125 J0.3681
G03 X-122.4529 Y26.9678 Z-2.9667 I-0.4250 J0.0000
G03 Y26.2317 Z-2.7333 I0.2125 J-0.3681
G03 X-121.8154 Y26.5998 Z-2.5000 I0.2125 J0.3681
G03 X-122.4529 Y26.9678 Z-2.2667 I-0.4250 J0.0000
G03 Y26.2317 Z-2.0333 I0.2125 J-0.3681
G03 X-121.8154 Y26.5998 Z-1.8000 I0.2125 J0.3681
G03 X-122.4529 Y26.9678 Z-1.5667 I-0.4250 J0.0000
G03 Y26.2317 Z-1.3333 I0.2125 J-0.3681
G03 X-121.8154 Y26.5998 Z-1.1000 I0.2125 J0.3681
G03 X-122.4529 Y26.9678 Z-0.8667 I-0.4250 J0.0000
G03 Y26.2317 Z-0.6333 I0.2125 J-0.3681
G03 X-121.8154 Y26.5998 Z-0.4000 I0.2125 J0.3681
G03 X-122.4529 Y26.9678 Z-0.1667 I-0.4250 J0.0000
G03 Y26.2317 Z0.0667 I0.2125 J-0.3681
G03 X-121.8154 Y26.5998 Z0.3000 I0.2125 J0.3681
G03 X-122.4529 Y26.9678 Z0.5333 I-0.4250 J0.0000
G03 Y26.2317 Z0.7667 I0.2125 J-0.3681
G03 X-121.8154 Y26.5998 Z1.0000 I0.2125 J0.3681
G00 Z5.0000


(Nr. 19:  M4 4)
G00 X-69.9131 Y85.4147 Z5.0000
G01 Z-1 F1000
G00 Z5
G01 Z-2 
G00 Z5
G01 Z-3 
G00 Z5
G01 Z-4 
G00 Z5
G01 Z-4.6000 F1000
G00 Z5
G01 Z-4.6000 F1000
G01 X-69.4881
G03 X-70.1256 Y85.7827 Z-4.3667 I-0.4250 J0.0000
G03 Y85.0466 Z-4.1333 I0.2125 J-0.3681
G03 X-69.4881 Y85.4147 Z-3.9000 I0.2125 J0.3681
G03 X-70.1256 Y85.7827 Z-3.6667 I-0.4250 J0.0000
G03 Y85.0466 Z-3.4333 I0.2125 J-0.3681
G03 X-69.4881 Y85.4147 Z-3.2000 I0.2125 J0.3681
G03 X-70.1256 Y85.7827 Z-2.9667 I-0.4250 J0.0000
G03 Y85.0466 Z-2.7333 I0.2125 J-0.3681
G03 X-69.4881 Y85.4147 Z-2.5000 I0.2125 J0.3681
G03 X-70.1256 Y85.7827 Z-2.2667 I-0.4250 J0.0000
G03 Y85.0466 Z-2.0333 I0.2125 J-0.3681
G03 X-69.4881 Y85.4147 Z-1.8000 I0.2125 J0.3681
G03 X-70.1256 Y85.7827 Z-1.5667 I-0.4250 J0.0000
G03 Y85.0466 Z-1.3333 I0.2125 J-0.3681
G03 X-69.4881 Y85.4147 Z-1.1000 I0.2125 J0.3681
G03 X-70.1256 Y85.7827 Z-0.8667 I-0.4250 J0.0000
G03 Y85.0466 Z-0.6333 I0.2125 J-0.3681
G03 X-69.4881 Y85.4147 Z-0.4000 I0.2125 J0.3681
G03 X-70.1256 Y85.7827 Z-0.1667 I-0.4250 J0.0000
G03 Y85.0466 Z0.0667 I0.2125 J-0.3681
G03 X-69.4881 Y85.4147 Z0.3000 I0.2125 J0.3681
G03 X-70.1256 Y85.7827 Z0.5333 I-0.4250 J0.0000
G03 Y85.0466 Z0.7667 I0.2125 J-0.3681
G03 X-69.4881 Y85.4147 Z1.0000 I0.2125 J0.3681
G00 Z5.0000


(Nr. 20:  M4 3)
G00 X-19.4818 Y79.8073 Z5.0000
G01 Z-1 F1000
G00 Z5
G01 Z-2 
G00 Z5
G01 Z-3 
G00 Z5
G01 Z-4 
G00 Z5
G01 Z-4.6000 F1000
G00 Z5
G01 Z-4.6000 F1000
G01 X-19.0568
G03 X-19.6943 Y80.1753 Z-4.3667 I-0.4250 J0.0000
G03 Y79.4392 Z-4.1333 I0.2125 J-0.3681
G03 X-19.0568 Y79.8073 Z-3.9000 I0.2125 J0.3681
G03 X-19.6943 Y80.1753 Z-3.6667 I-0.4250 J0.0000
G03 Y79.4392 Z-3.4333 I0.2125 J-0.3681
G03 X-19.0568 Y79.8073 Z-3.2000 I0.2125 J0.3681
G03 X-19.6943 Y80.1753 Z-2.9667 I-0.4250 J0.0000
G03 Y79.4392 Z-2.7333 I0.2125 J-0.3681
G03 X-19.0568 Y79.8073 Z-2.5000 I0.2125 J0.3681
G03 X-19.6943 Y80.1753 Z-2.2667 I-0.4250 J0.0000
G03 Y79.4392 Z-2.0333 I0.2125 J-0.3681
G03 X-19.0568 Y79.8073 Z-1.8000 I0.2125 J0.3681
G03 X-19.6943 Y80.1753 Z-1.5667 I-0.4250 J0.0000
G03 Y79.4392 Z-1.3333 I0.2125 J-0.3681
G03 X-19.0568 Y79.8073 Z-1.1000 I0.2125 J0.3681
G03 X-19.6943 Y80.1753 Z-0.8667 I-0.4250 J0.0000
G03 Y79.4392 Z-0.6333 I0.2125 J-0.3681
G03 X-19.0568 Y79.8073 Z-0.4000 I0.2125 J0.3681
G03 X-19.6943 Y80.1753 Z-0.1667 I-0.4250 J0.0000
G03 Y79.4392 Z0.0667 I0.2125 J-0.3681
G03 X-19.0568 Y79.8073 Z0.3000 I0.2125 J0.3681
G03 X-19.6943 Y80.1753 Z0.5333 I-0.4250 J0.0000
G03 Y79.4392 Z0.7667 I0.2125 J-0.3681
G03 X-19.0568 Y79.8073 Z1.0000 I0.2125 J0.3681
G00 Z5.0000


(Nr. 21:  M4 2)
G00 X-5.9930 Y79.2745 Z5.0000
G01 Z-1 F1000
G00 Z5
G01 Z-2 
G00 Z5
G01 Z-3 
G00 Z5
G01 Z-4 
G00 Z5
G01 Z-4.6000 F1000
G00 Z5
G01 Z-4.6000 F1000
G01 X-5.5680
G03 X-6.2055 Y79.6426 Z-4.3667 I-0.4250 J0.0000
G03 Y78.9065 Z-4.1333 I0.2125 J-0.3681
G03 X-5.5680 Y79.2745 Z-3.9000 I0.2125 J0.3681
G03 X-6.2055 Y79.6426 Z-3.6667 I-0.4250 J0.0000
G03 Y78.9065 Z-3.4333 I0.2125 J-0.3681
G03 X-5.5680 Y79.2745 Z-3.2000 I0.2125 J0.3681
G03 X-6.2055 Y79.6426 Z-2.9667 I-0.4250 J0.0000
G03 Y78.9065 Z-2.7333 I0.2125 J-0.3681
G03 X-5.5680 Y79.2745 Z-2.5000 I0.2125 J0.3681
G03 X-6.2055 Y79.6426 Z-2.2667 I-0.4250 J0.0000
G03 Y78.9065 Z-2.0333 I0.2125 J-0.3681
G03 X-5.5680 Y79.2745 Z-1.8000 I0.2125 J0.3681
G03 X-6.2055 Y79.6426 Z-1.5667 I-0.4250 J0.0000
G03 Y78.9065 Z-1.3333 I0.2125 J-0.3681
G03 X-5.5680 Y79.2745 Z-1.1000 I0.2125 J0.3681
G03 X-6.2055 Y79.6426 Z-0.8667 I-0.4250 J0.0000
G03 Y78.9065 Z-0.6333 I0.2125 J-0.3681
G03 X-5.5680 Y79.2745 Z-0.4000 I0.2125 J0.3681
G03 X-6.2055 Y79.6426 Z-0.1667 I-0.4250 J0.0000
G03 Y78.9065 Z0.0667 I0.2125 J-0.3681
G03 X-5.5680 Y79.2745 Z0.3000 I0.2125 J0.3681
G03 X-6.2055 Y79.6426 Z0.5333 I-0.4250 J0.0000
G03 Y78.9065 Z0.7667 I0.2125 J-0.3681
G03 X-5.5680 Y79.2745 Z1.0000 I0.2125 J0.3681
G00 Z5.0000

(Koordinaten nach Unten verschieben)
G00 Z25.0000
G00 X0 Y0
G92 X0 Y+217
G00 Y0

G00 Z25
G00 X-45.1415 Y10.6905 
G00 Z0.5
G01 Z-1 F1000
G00 Z5
G01 Z-2 
G00 Z5
G01 Z-3 
G00 Z5
G01 Z-4 
G00 Z5
G01 Z-4.6000 F1000 S15000
G00 Z5
G01 Z-4.6000 F1000
G01 X-44.7165
G03 X-45.3540 Y11.0585 Z-4.3667 I-0.4250 J0.0000
G03 Y10.3224 Z-4.1333 I0.2125 J-0.3681
G03 X-44.7165 Y10.6905 Z-3.9000 I0.2125 J0.3681
G03 X-45.3540 Y11.0585 Z-3.6667 I-0.4250 J0.0000
G03 Y10.3224 Z-3.4333 I0.2125 J-0.3681
G03 X-44.7165 Y10.6905 Z-3.2000 I0.2125 J0.3681
G03 X-45.3540 Y11.0585 Z-2.9667 I-0.4250 J0.0000
G03 Y10.3224 Z-2.7333 I0.2125 J-0.3681
G03 X-44.7165 Y10.6905 Z-2.5000 I0.2125 J0.3681
G03 X-45.3540 Y11.0585 Z-2.2667 I-0.4250 J0.0000
G03 Y10.3224 Z-2.0333 I0.2125 J-0.3681
G03 X-44.7165 Y10.6905 Z-1.8000 I0.2125 J0.3681
G03 X-45.3540 Y11.0585 Z-1.5667 I-0.4250 J0.0000
G03 Y10.3224 Z-1.3333 I0.2125 J-0.3681
G03 X-44.7165 Y10.6905 Z-1.1000 I0.2125 J0.3681
G03 X-45.3540 Y11.0585 Z-0.8667 I-0.4250 J0.0000
G03 Y10.3224 Z-0.6333 I0.2125 J-0.3681
G03 X-44.7165 Y10.6905 Z-0.4000 I0.2125 J0.3681
G03 X-45.3540 Y11.0585 Z-0.1667 I-0.4250 J0.0000
G03 Y10.3224 Z0.0667 I0.2125 J-0.3681
G03 X-44.7165 Y10.6905 Z0.3000 I0.2125 J0.3681
G03 X-45.3540 Y11.0585 Z0.5333 I-0.4250 J0.0000
G03 Y10.3224 Z0.7667 I0.2125 J-0.3681
G03 X-44.7165 Y10.6905 Z1.0000 I0.2125 J0.3681
G00 Z5.0000


(Nr. 17:  M4 5)
G00 X-79.0983 Y40.9016 Z5.0000
G01 Z-1 F1000
G00 Z5
G01 Z-2 
G00 Z5
G01 Z-3 
G00 Z5
G01 Z-4 
G00 Z5
G01 Z-4.6000 F1000
G00 Z5
G01 Z-4.6000 F1000
G01 X-78.6733
G03 X-79.3108 Y41.2697 Z-4.3667 I-0.4250 J0.0000
G03 Y40.5336 Z-4.1333 I0.2125 J-0.3681
G03 X-78.6733 Y40.9016 Z-3.9000 I0.2125 J0.3681
G03 X-79.3108 Y41.2697 Z-3.6667 I-0.4250 J0.0000
G03 Y40.5336 Z-3.4333 I0.2125 J-0.3681
G03 X-78.6733 Y40.9016 Z-3.2000 I0.2125 J0.3681
G03 X-79.3108 Y41.2697 Z-2.9667 I-0.4250 J0.0000
G03 Y40.5336 Z-2.7333 I0.2125 J-0.3681
G03 X-78.6733 Y40.9016 Z-2.5000 I0.2125 J0.3681
G03 X-79.3108 Y41.2697 Z-2.2667 I-0.4250 J0.0000
G03 Y40.5336 Z-2.0333 I0.2125 J-0.3681
G03 X-78.6733 Y40.9016 Z-1.8000 I0.2125 J0.3681
G03 X-79.3108 Y41.2697 Z-1.5667 I-0.4250 J0.0000
G03 Y40.5336 Z-1.3333 I0.2125 J-0.3681
G03 X-78.6733 Y40.9016 Z-1.1000 I0.2125 J0.3681
G03 X-79.3108 Y41.2697 Z-0.8667 I-0.4250 J0.0000
G03 Y40.5336 Z-0.6333 I0.2125 J-0.3681
G03 X-78.6733 Y40.9016 Z-0.4000 I0.2125 J0.3681
G03 X-79.3108 Y41.2697 Z-0.1667 I-0.4250 J0.0000
G03 Y40.5336 Z0.0667 I0.2125 J-0.3681
G03 X-78.6733 Y40.9016 Z0.3000 I0.2125 J0.3681
G03 X-79.3108 Y41.2697 Z0.5333 I-0.4250 J0.0000
G03 Y40.5336 Z0.7667 I0.2125 J-0.3681
G03 X-78.6733 Y40.9016 Z1.0000 I0.2125 J0.3681
G00 Z5.0000


(Nr. 18:  M4 6)
G00 X-122.2404 Y26.5998 Z5.0000
G01 Z-1 F1000
G00 Z5
G01 Z-2 
G00 Z5
G01 Z-3 
G00 Z5
G01 Z-4 
G00 Z5
G01 Z-4.6000 F1000
G00 Z5
G01 Z-4.6000 F1000
G01 X-121.8154
G03 X-122.4529 Y26.9678 Z-4.3667 I-0.4250 J0.0000
G03 Y26.2317 Z-4.1333 I0.2125 J-0.3681
G03 X-121.8154 Y26.5998 Z-3.9000 I0.2125 J0.3681
G03 X-122.4529 Y26.9678 Z-3.6667 I-0.4250 J0.0000
G03 Y26.2317 Z-3.4333 I0.2125 J-0.3681
G03 X-121.8154 Y26.5998 Z-3.2000 I0.2125 J0.3681
G03 X-122.4529 Y26.9678 Z-2.9667 I-0.4250 J0.0000
G03 Y26.2317 Z-2.7333 I0.2125 J-0.3681
G03 X-121.8154 Y26.5998 Z-2.5000 I0.2125 J0.3681
G03 X-122.4529 Y26.9678 Z-2.2667 I-0.4250 J0.0000
G03 Y26.2317 Z-2.0333 I0.2125 J-0.3681
G03 X-121.8154 Y26.5998 Z-1.8000 I0.2125 J0.3681
G03 X-122.4529 Y26.9678 Z-1.5667 I-0.4250 J0.0000
G03 Y26.2317 Z-1.3333 I0.2125 J-0.3681
G03 X-121.8154 Y26.5998 Z-1.1000 I0.2125 J0.3681
G03 X-122.4529 Y26.9678 Z-0.8667 I-0.4250 J0.0000
G03 Y26.2317 Z-0.6333 I0.2125 J-0.3681
G03 X-121.8154 Y26.5998 Z-0.4000 I0.2125 J0.3681
G03 X-122.4529 Y26.9678 Z-0.1667 I-0.4250 J0.0000
G03 Y26.2317 Z0.0667 I0.2125 J-0.3681
G03 X-121.8154 Y26.5998 Z0.3000 I0.2125 J0.3681
G03 X-122.4529 Y26.9678 Z0.5333 I-0.4250 J0.0000
G03 Y26.2317 Z0.7667 I0.2125 J-0.3681
G03 X-121.8154 Y26.5998 Z1.0000 I0.2125 J0.3681
G00 Z5.0000


(Nr. 19:  M4 4)
G00 X-69.9131 Y85.4147 Z5.0000
G01 Z-1 F1000
G00 Z5
G01 Z-2 
G00 Z5
G01 Z-3 
G00 Z5
G01 Z-4 
G00 Z5
G01 Z-4.6000 F1000
G00 Z5
G01 Z-4.6000 F1000
G01 X-69.4881
G03 X-70.1256 Y85.7827 Z-4.3667 I-0.4250 J0.0000
G03 Y85.0466 Z-4.1333 I0.2125 J-0.3681
G03 X-69.4881 Y85.4147 Z-3.9000 I0.2125 J0.3681
G03 X-70.1256 Y85.7827 Z-3.6667 I-0.4250 J0.0000
G03 Y85.0466 Z-3.4333 I0.2125 J-0.3681
G03 X-69.4881 Y85.4147 Z-3.2000 I0.2125 J0.3681
G03 X-70.1256 Y85.7827 Z-2.9667 I-0.4250 J0.0000
G03 Y85.0466 Z-2.7333 I0.2125 J-0.3681
G03 X-69.4881 Y85.4147 Z-2.5000 I0.2125 J0.3681
G03 X-70.1256 Y85.7827 Z-2.2667 I-0.4250 J0.0000
G03 Y85.0466 Z-2.0333 I0.2125 J-0.3681
G03 X-69.4881 Y85.4147 Z-1.8000 I0.2125 J0.3681
G03 X-70.1256 Y85.7827 Z-1.5667 I-0.4250 J0.0000
G03 Y85.0466 Z-1.3333 I0.2125 J-0.3681
G03 X-69.4881 Y85.4147 Z-1.1000 I0.2125 J0.3681
G03 X-70.1256 Y85.7827 Z-0.8667 I-0.4250 J0.0000
G03 Y85.0466 Z-0.6333 I0.2125 J-0.3681
G03 X-69.4881 Y85.4147 Z-0.4000 I0.2125 J0.3681
G03 X-70.1256 Y85.7827 Z-0.1667 I-0.4250 J0.0000
G03 Y85.0466 Z0.0667 I0.2125 J-0.3681
G03 X-69.4881 Y85.4147 Z0.3000 I0.2125 J0.3681
G03 X-70.1256 Y85.7827 Z0.5333 I-0.4250 J0.0000
G03 Y85.0466 Z0.7667 I0.2125 J-0.3681
G03 X-69.4881 Y85.4147 Z1.0000 I0.2125 J0.3681
G00 Z5.0000


(Nr. 20:  M4 3)
G00 X-19.4818 Y79.8073 Z5.0000
G01 Z-1 F1000
G00 Z5
G01 Z-2 
G00 Z5
G01 Z-3 
G00 Z5
G01 Z-4 
G00 Z5
G01 Z-4.6000 F1000
G00 Z5
G01 Z-4.6000 F1000
G01 X-19.0568
G03 X-19.6943 Y80.1753 Z-4.3667 I-0.4250 J0.0000
G03 Y79.4392 Z-4.1333 I0.2125 J-0.3681
G03 X-19.0568 Y79.8073 Z-3.9000 I0.2125 J0.3681
G03 X-19.6943 Y80.1753 Z-3.6667 I-0.4250 J0.0000
G03 Y79.4392 Z-3.4333 I0.2125 J-0.3681
G03 X-19.0568 Y79.8073 Z-3.2000 I0.2125 J0.3681
G03 X-19.6943 Y80.1753 Z-2.9667 I-0.4250 J0.0000
G03 Y79.4392 Z-2.7333 I0.2125 J-0.3681
G03 X-19.0568 Y79.8073 Z-2.5000 I0.2125 J0.3681
G03 X-19.6943 Y80.1753 Z-2.2667 I-0.4250 J0.0000
G03 Y79.4392 Z-2.0333 I0.2125 J-0.3681
G03 X-19.0568 Y79.8073 Z-1.8000 I0.2125 J0.3681
G03 X-19.6943 Y80.1753 Z-1.5667 I-0.4250 J0.0000
G03 Y79.4392 Z-1.3333 I0.2125 J-0.3681
G03 X-19.0568 Y79.8073 Z-1.1000 I0.2125 J0.3681
G03 X-19.6943 Y80.1753 Z-0.8667 I-0.4250 J0.0000
G03 Y79.4392 Z-0.6333 I0.2125 J-0.3681
G03 X-19.0568 Y79.8073 Z-0.4000 I0.2125 J0.3681
G03 X-19.6943 Y80.1753 Z-0.1667 I-0.4250 J0.0000
G03 Y79.4392 Z0.0667 I0.2125 J-0.3681
G03 X-19.0568 Y79.8073 Z0.3000 I0.2125 J0.3681
G03 X-19.6943 Y80.1753 Z0.5333 I-0.4250 J0.0000
G03 Y79.4392 Z0.7667 I0.2125 J-0.3681
G03 X-19.0568 Y79.8073 Z1.0000 I0.2125 J0.3681
G00 Z5.0000


(Nr. 21:  M4 2)
G00 X-5.9930 Y79.2745 Z5.0000
G01 Z-1 F1000
G00 Z5
G01 Z-2 
G00 Z5
G01 Z-3 
G00 Z5
G01 Z-4 
G00 Z5
G01 Z-4.6000 F1000
G00 Z5
G01 Z-4.6000 F1000
G01 X-5.5680
G03 X-6.2055 Y79.6426 Z-4.3667 I-0.4250 J0.0000
G03 Y78.9065 Z-4.1333 I0.2125 J-0.3681
G03 X-5.5680 Y79.2745 Z-3.9000 I0.2125 J0.3681
G03 X-6.2055 Y79.6426 Z-3.6667 I-0.4250 J0.0000
G03 Y78.9065 Z-3.4333 I0.2125 J-0.3681
G03 X-5.5680 Y79.2745 Z-3.2000 I0.2125 J0.3681
G03 X-6.2055 Y79.6426 Z-2.9667 I-0.4250 J0.0000
G03 Y78.9065 Z-2.7333 I0.2125 J-0.3681
G03 X-5.5680 Y79.2745 Z-2.5000 I0.2125 J0.3681
G03 X-6.2055 Y79.6426 Z-2.2667 I-0.4250 J0.0000
G03 Y78.9065 Z-2.0333 I0.2125 J-0.3681
G03 X-5.5680 Y79.2745 Z-1.8000 I0.2125 J0.3681
G03 X-6.2055 Y79.6426 Z-1.5667 I-0.4250 J0.0000
G03 Y78.9065 Z-1.3333 I0.2125 J-0.3681
G03 X-5.5680 Y79.2745 Z-1.1000 I0.2125 J0.3681
G03 X-6.2055 Y79.6426 Z-0.8667 I-0.4250 J0.0000
G03 Y78.9065 Z-0.6333 I0.2125 J-0.3681
G03 X-5.5680 Y79.2745 Z-0.4000 I0.2125 J0.3681
G03 X-6.2055 Y79.6426 Z-0.1667 I-0.4250 J0.0000
G03 Y78.9065 Z0.0667 I0.2125 J-0.3681
G03 X-5.5680 Y79.2745 Z0.3000 I0.2125 J0.3681
G03 X-6.2055 Y79.6426 Z0.5333 I-0.4250 J0.0000
G03 Y78.9065 Z0.7667 I0.2125 J-0.3681
G03 X-5.5680 Y79.2745 Z1.0000 I0.2125 J0.3681
G00 Z5.0000

(Koordinaten nach Unten verschieben)
G00 Z25.0000
G00 X0 Y0
G92 X0 Y+217
G00 Y0

G00 Z25
G00 X-45.1415 Y10.6905 
G00 Z0.5
G01 Z-1 F1000
G00 Z5
G01 Z-2 
G00 Z5
G01 Z-3 
G00 Z5
G01 Z-4 
G00 Z5
G01 Z-4.6000 F1000 S15000
G00 Z5
G01 Z-4.6000 F1000
G01 X-44.7165
G03 X-45.3540 Y11.0585 Z-4.3667 I-0.4250 J0.0000
G03 Y10.3224 Z-4.1333 I0.2125 J-0.3681
G03 X-44.7165 Y10.6905 Z-3.9000 I0.2125 J0.3681
G03 X-45.3540 Y11.0585 Z-3.6667 I-0.4250 J0.0000
G03 Y10.3224 Z-3.4333 I0.2125 J-0.3681
G03 X-44.7165 Y10.6905 Z-3.2000 I0.2125 J0.3681
G03 X-45.3540 Y11.0585 Z-2.9667 I-0.4250 J0.0000
G03 Y10.3224 Z-2.7333 I0.2125 J-0.3681
G03 X-44.7165 Y10.6905 Z-2.5000 I0.2125 J0.3681
G03 X-45.3540 Y11.0585 Z-2.2667 I-0.4250 J0.0000
G03 Y10.3224 Z-2.0333 I0.2125 J-0.3681
G03 X-44.7165 Y10.6905 Z-1.8000 I0.2125 J0.3681
G03 X-45.3540 Y11.0585 Z-1.5667 I-0.4250 J0.0000
G03 Y10.3224 Z-1.3333 I0.2125 J-0.3681
G03 X-44.7165 Y10.6905 Z-1.1000 I0.2125 J0.3681
G03 X-45.3540 Y11.0585 Z-0.8667 I-0.4250 J0.0000
G03 Y10.3224 Z-0.6333 I0.2125 J-0.3681
G03 X-44.7165 Y10.6905 Z-0.4000 I0.2125 J0.3681
G03 X-45.3540 Y11.0585 Z-0.1667 I-0.4250 J0.0000
G03 Y10.3224 Z0.0667 I0.2125 J-0.3681
G03 X-44.7165 Y10.6905 Z0.3000 I0.2125 J0.3681
G03 X-45.3540 Y11.0585 Z0.5333 I-0.4250 J0.0000
G03 Y10.3224 Z0.7667 I0.2125 J-0.3681
G03 X-44.7165 Y10.6905 Z1.0000 I0.2125 J0.3681
G00 Z5.0000


(Nr. 17:  M4 5)
G00 X-79.0983 Y40.9016 Z5.0000
G01 Z-1 F1000
G00 Z5
G01 Z-2 
G00 Z5
G01 Z-3 
G00 Z5
G01 Z-4 
G00 Z5
G01 Z-4.6000 F1000
G00 Z5
G01 Z-4.6000 F1000
G01 X-78.6733
G03 X-79.3108 Y41.2697 Z-4.3667 I-0.4250 J0.0000
G03 Y40.5336 Z-4.1333 I0.2125 J-0.3681
G03 X-78.6733 Y40.9016 Z-3.9000 I0.2125 J0.3681
G03 X-79.3108 Y41.2697 Z-3.6667 I-0.4250 J0.0000
G03 Y40.5336 Z-3.4333 I0.2125 J-0.3681
G03 X-78.6733 Y40.9016 Z-3.2000 I0.2125 J0.3681
G03 X-79.3108 Y41.2697 Z-2.9667 I-0.4250 J0.0000
G03 Y40.5336 Z-2.7333 I0.2125 J-0.3681
G03 X-78.6733 Y40.9016 Z-2.5000 I0.2125 J0.3681
G03 X-79.3108 Y41.2697 Z-2.2667 I-0.4250 J0.0000
G03 Y40.5336 Z-2.0333 I0.2125 J-0.3681
G03 X-78.6733 Y40.9016 Z-1.8000 I0.2125 J0.3681
G03 X-79.3108 Y41.2697 Z-1.5667 I-0.4250 J0.0000
G03 Y40.5336 Z-1.3333 I0.2125 J-0.3681
G03 X-78.6733 Y40.9016 Z-1.1000 I0.2125 J0.3681
G03 X-79.3108 Y41.2697 Z-0.8667 I-0.4250 J0.0000
G03 Y40.5336 Z-0.6333 I0.2125 J-0.3681
G03 X-78.6733 Y40.9016 Z-0.4000 I0.2125 J0.3681
G03 X-79.3108 Y41.2697 Z-0.1667 I-0.4250 J0.0000
G03 Y40.5336 Z0.0667 I0.2125 J-0.3681
G03 X-78.6733 Y40.9016 Z0.3000 I0.2125 J0.3681
G03 X-79.3108 Y41.2697 Z0.5333 I-0.4250 J0.0000
G03 Y40.5336 Z0.7667 I0.2125 J-0.3681
G03 X-78.6733 Y40.9016 Z1.0000 I0.2125 J0.3681
G00 Z5.0000


(Nr. 18:  M4 6)
G00 X-122.2404 Y26.5998 Z5.0000
G01 Z-1 F1000
G00 Z5
G01 Z-2 
G00 Z5
G01 Z-3 
G00 Z5
G01 Z-4 
G00 Z5
G01 Z-4.6000 F1000
G00 Z5
G01 Z-4.6000 F1000
G01 X-121.8154
G03 X-122.4529 Y26.9678 Z-4.3667 I-0.4250 J0.0000
G03 Y26.2317 Z-4.1333 I0.2125 J-0.3681
G03 X-121.8154 Y26.5998 Z-3.9000 I0.2125 J0.3681
G03 X-122.4529 Y26.9678 Z-3.6667 I-0.4250 J0.0000
G03 Y26.2317 Z-3.4333 I0.2125 J-0.3681
G03 X-121.8154 Y26.5998 Z-3.2000 I0.2125 J0.3681
G03 X-122.4529 Y26.9678 Z-2.9667 I-0.4250 J0.0000
G03 Y26.2317 Z-2.7333 I0.2125 J-0.3681
G03 X-121.8154 Y26.5998 Z-2.5000 I0.2125 J0.3681
G03 X-122.4529 Y26.9678 Z-2.2667 I-0.4250 J0.0000
G03 Y26.2317 Z-2.0333 I0.2125 J-0.3681
G03 X-121.8154 Y26.5998 Z-1.8000 I0.2125 J0.3681
G03 X-122.4529 Y26.9678 Z-1.5667 I-0.4250 J0.0000
G03 Y26.2317 Z-1.3333 I0.2125 J-0.3681
G03 X-121.8154 Y26.5998 Z-1.1000 I0.2125 J0.3681
G03 X-122.4529 Y26.9678 Z-0.8667 I-0.4250 J0.0000
G03 Y26.2317 Z-0.6333 I0.2125 J-0.3681
G03 X-121.8154 Y26.5998 Z-0.4000 I0.2125 J0.3681
G03 X-122.4529 Y26.9678 Z-0.1667 I-0.4250 J0.0000
G03 Y26.2317 Z0.0667 I0.2125 J-0.3681
G03 X-121.8154 Y26.5998 Z0.3000 I0.2125 J0.3681
G03 X-122.4529 Y26.9678 Z0.5333 I-0.4250 J0.0000
G03 Y26.2317 Z0.7667 I0.2125 J-0.3681
G03 X-121.8154 Y26.5998 Z1.0000 I0.2125 J0.3681
G00 Z5.0000


(Nr. 19:  M4 4)
G00 X-69.9131 Y85.4147 Z5.0000
G01 Z-1 F1000
G00 Z5
G01 Z-2 
G00 Z5
G01 Z-3 
G00 Z5
G01 Z-4 
G00 Z5
G01 Z-4.6000 F1000
G00 Z5
G01 Z-4.6000 F1000
G01 X-69.4881
G03 X-70.1256 Y85.7827 Z-4.3667 I-0.4250 J0.0000
G03 Y85.0466 Z-4.1333 I0.2125 J-0.3681
G03 X-69.4881 Y85.4147 Z-3.9000 I0.2125 J0.3681
G03 X-70.1256 Y85.7827 Z-3.6667 I-0.4250 J0.0000
G03 Y85.0466 Z-3.4333 I0.2125 J-0.3681
G03 X-69.4881 Y85.4147 Z-3.2000 I0.2125 J0.3681
G03 X-70.1256 Y85.7827 Z-2.9667 I-0.4250 J0.0000
G03 Y85.0466 Z-2.7333 I0.2125 J-0.3681
G03 X-69.4881 Y85.4147 Z-2.5000 I0.2125 J0.3681
G03 X-70.1256 Y85.7827 Z-2.2667 I-0.4250 J0.0000
G03 Y85.0466 Z-2.0333 I0.2125 J-0.3681
G03 X-69.4881 Y85.4147 Z-1.8000 I0.2125 J0.3681
G03 X-70.1256 Y85.7827 Z-1.5667 I-0.4250 J0.0000
G03 Y85.0466 Z-1.3333 I0.2125 J-0.3681
G03 X-69.4881 Y85.4147 Z-1.1000 I0.2125 J0.3681
G03 X-70.1256 Y85.7827 Z-0.8667 I-0.4250 J0.0000
G03 Y85.0466 Z-0.6333 I0.2125 J-0.3681
G03 X-69.4881 Y85.4147 Z-0.4000 I0.2125 J0.3681
G03 X-70.1256 Y85.7827 Z-0.1667 I-0.4250 J0.0000
G03 Y85.0466 Z0.0667 I0.2125 J-0.3681
G03 X-69.4881 Y85.4147 Z0.3000 I0.2125 J0.3681
G03 X-70.1256 Y85.7827 Z0.5333 I-0.4250 J0.0000
G03 Y85.0466 Z0.7667 I0.2125 J-0.3681
G03 X-69.4881 Y85.4147 Z1.0000 I0.2125 J0.3681
G00 Z5.0000


(Nr. 20:  M4 3)
G00 X-19.4818 Y79.8073 Z5.0000
G01 Z-1 F1000
G00 Z5
G01 Z-2 
G00 Z5
G01 Z-3 
G00 Z5
G01 Z-4 
G00 Z5
G01 Z-4.6000 F1000
G00 Z5
G01 Z-4.6000 F1000
G01 X-19.0568
G03 X-19.6943 Y80.1753 Z-4.3667 I-0.4250 J0.0000
G03 Y79.4392 Z-4.1333 I0.2125 J-0.3681
G03 X-19.0568 Y79.8073 Z-3.9000 I0.2125 J0.3681
G03 X-19.6943 Y80.1753 Z-3.6667 I-0.4250 J0.0000
G03 Y79.4392 Z-3.4333 I0.2125 J-0.3681
G03 X-19.0568 Y79.8073 Z-3.2000 I0.2125 J0.3681
G03 X-19.6943 Y80.1753 Z-2.9667 I-0.4250 J0.0000
G03 Y79.4392 Z-2.7333 I0.2125 J-0.3681
G03 X-19.0568 Y79.8073 Z-2.5000 I0.2125 J0.3681
G03 X-19.6943 Y80.1753 Z-2.2667 I-0.4250 J0.0000
G03 Y79.4392 Z-2.0333 I0.2125 J-0.3681
G03 X-19.0568 Y79.8073 Z-1.8000 I0.2125 J0.3681
G03 X-19.6943 Y80.1753 Z-1.5667 I-0.4250 J0.0000
G03 Y79.4392 Z-1.3333 I0.2125 J-0.3681
G03 X-19.0568 Y79.8073 Z-1.1000 I0.2125 J0.3681
G03 X-19.6943 Y80.1753 Z-0.8667 I-0.4250 J0.0000
G03 Y79.4392 Z-0.6333 I0.2125 J-0.3681
G03 X-19.0568 Y79.8073 Z-0.4000 I0.2125 J0.3681
G03 X-19.6943 Y80.1753 Z-0.1667 I-0.4250 J0.0000
G03 Y79.4392 Z0.0667 I0.2125 J-0.3681
G03 X-19.0568 Y79.8073 Z0.3000 I0.2125 J0.3681
G03 X-19.6943 Y80.1753 Z0.5333 I-0.4250 J0.0000
G03 Y79.4392 Z0.7667 I0.2125 J-0.3681
G03 X-19.0568 Y79.8073 Z1.0000 I0.2125 J0.3681
G00 Z5.0000


(Nr. 21:  M4 2)
G00 X-5.9930 Y79.2745 Z5.0000
G01 Z-1 F1000
G00 Z5
G01 Z-2 
G00 Z5
G01 Z-3 
G00 Z5
G01 Z-4 
G00 Z5
G01 Z-4.6000 F1000
G00 Z5
G01 Z-4.6000 F1000
G01 X-5.5680
G03 X-6.2055 Y79.6426 Z-4.3667 I-0.4250 J0.0000
G03 Y78.9065 Z-4.1333 I0.2125 J-0.3681
G03 X-5.5680 Y79.2745 Z-3.9000 I0.2125 J0.3681
G03 X-6.2055 Y79.6426 Z-3.6667 I-0.4250 J0.0000
G03 Y78.9065 Z-3.4333 I0.2125 J-0.3681
G03 X-5.5680 Y79.2745 Z-3.2000 I0.2125 J0.3681
G03 X-6.2055 Y79.6426 Z-2.9667 I-0.4250 J0.0000
G03 Y78.9065 Z-2.7333 I0.2125 J-0.3681
G03 X-5.5680 Y79.2745 Z-2.5000 I0.2125 J0.3681
G03 X-6.2055 Y79.6426 Z-2.2667 I-0.4250 J0.0000
G03 Y78.9065 Z-2.0333 I0.2125 J-0.3681
G03 X-5.5680 Y79.2745 Z-1.8000 I0.2125 J0.3681
G03 X-6.2055 Y79.6426 Z-1.5667 I-0.4250 J0.0000
G03 Y78.9065 Z-1.3333 I0.2125 J-0.3681
G03 X-5.5680 Y79.2745 Z-1.1000 I0.2125 J0.3681
G03 X-6.2055 Y79.6426 Z-0.8667 I-0.4250 J0.0000
G03 Y78.9065 Z-0.6333 I0.2125 J-0.3681
G03 X-5.5680 Y79.2745 Z-0.4000 I0.2125 J0.3681
G03 X-6.2055 Y79.6426 Z-0.1667 I-0.4250 J0.0000
G03 Y78.9065 Z0.0667 I0.2125 J-0.3681
G03 X-5.5680 Y79.2745 Z0.3000 I0.2125 J0.3681
G03 X-6.2055 Y79.6426 Z0.5333 I-0.4250 J0.0000
G03 Y78.9065 Z0.7667 I0.2125 J-0.3681
G03 X-5.5680 Y79.2745 Z1.0000 I0.2125 J0.3681
G00 Z5.0000


(Nr. 10: Spirale)
M05
MSG "Werkzeug: #19 Gravur90_0.5"
T19 M06
M03 S30000
G00 Z25
G00 X-40.9164 Y152.5787 
G00 Z5.0000
G01 Z-2.5312 F3000 S30000
G01 X-41.2025 Y152.7054 Z-2.5348
G01 X-41.3694 Y152.7756 Z-2.5349
G01 X-41.4599 Y152.8093 Z-2.5356
G01 X-41.5397 Y152.8372 Z-2.5376
G01 X-41.7116 Y152.8938 Z-2.5393
G01 X-41.8200 Y152.9273 Z-2.5383
G01 X-41.9133 Y152.9548 Z-2.5387
G01 X-42.0278 Y152.9832 Z-2.5400
G01 X-42.1224 Y153.0057 Z-2.5418
G01 X-42.3326 Y153.0518 Z-2.5420
G01 X-42.4485 Y153.0732 Z-2.5416
G01 X-42.5446 Y153.0883 Z-2.5437
G01 X-42.7578 Y153.1165 Z-2.5458
G01 X-42.8748 Y153.1298 Z-2.5449
G01 X-42.9716 Y153.1391 Z-2.5455
G01 X-43.1863 Y153.1501 Z-2.5488
G01 X-43.4011 Y153.1565 Z-2.5486
G01 X-43.5208 Y153.1560 Z-2.5483
G01 X-43.6186 Y153.1530 Z-2.5503
G01 X-43.8373 Y153.1418 Z-2.5519
G01 X-43.9582 Y153.1333 Z-2.5508
G01 X-44.0557 Y153.1246 Z-2.5515
G01 X-44.2728 Y153.0961 Z-2.5545
G01 X-44.4892 Y153.0632 Z-2.5541
G01 X-44.6082 Y153.0404 Z-2.5543
G01 X-44.7038 Y153.0198 Z-2.5564
G01 X-44.9168 Y152.9696 Z-2.5577
G01 X-45.0340 Y152.9396 Z-2.5566
G01 X-45.1281 Y152.9131 Z-2.5577
G01 X-45.3397 Y152.8456 Z-2.5603
G01 X-45.5523 Y152.7734 Z-2.5597
G01 X-45.6700 Y152.7276 Z-2.5607
G01 X-45.7611 Y152.6909 Z-2.5623
G01 X-45.9680 Y152.6037 Z-2.5624
G01 X-46.0829 Y152.5515 Z-2.5618
G01 X-46.1712 Y152.5085 Z-2.5636
G01 X-46.3711 Y152.4065 Z-2.5648
G01 X-46.4825 Y152.3472 Z-2.5636
G01 X-46.5682 Y152.2993 Z-2.5644
G01 X-46.7601 Y152.1830 Z-2.5666
G01 X-46.9514 Y152.0621 Z-2.5656
G01 X-47.0575 Y151.9886 Z-2.5665
G01 X-47.1379 Y151.9315 Z-2.5680
G01 X-47.3213 Y151.7968 Z-2.5678
G01 X-47.4231 Y151.7177 Z-2.5672
G01 X-47.4994 Y151.6552 Z-2.5689
G01 X-47.6729 Y151.5079 Z-2.5698
G01 X-47.7697 Y151.4228 Z-2.5685
G01 X-47.8423 Y151.3561 Z-2.5693
G01 X-48.0049 Y151.1970 Z-2.5712
G01 X-48.1644 Y151.0349 Z-2.5700
G01 X-48.2521 Y150.9376 Z-2.5709
G01 X-48.3177 Y150.8636 Z-2.5722
G01 X-48.4687 Y150.6881 Z-2.5717
G01 X-48.5519 Y150.5848
G01 X-48.6124 Y150.5065 Z-2.5734
G01 X-48.7512 Y150.3213 Z-2.5740
G01 X-48.8285 Y150.2136 Z-2.5730
G01 X-48.8842 Y150.1318 Z-2.5744
G01 X-49.0104 Y149.9378 Z-2.5758
G01 X-49.0810 Y149.8257 Z-2.5746
G01 X-49.1322 Y149.7411 Z-2.5750
G01 X-49.2455 Y149.5392 Z-2.5770
G01 X-49.3397 Y149.3610 Z-2.5740
G01 X-49.3844 Y149.2725 Z-2.5744
G01 X-49.4278 Y149.1833 Z-2.5762
G01 X-49.5002 Y149.0283 Z-2.5769
G01 X-49.5408 Y148.9378 Z-2.5758
G01 X-49.5808 Y148.8470 Z-2.5754
G01 X-49.6188 Y148.7554 Z-2.5771
G01 X-49.6811 Y148.5961 Z-2.5784
G01 X-49.7505 Y148.4103 Z-2.5769
G01 X-49.7837 Y148.3169 Z-2.5778
G01 X-49.8358 Y148.1540 Z-2.5794
G01 X-49.9216 Y147.8691 Z-2.5784
G01 X-49.9646 Y147.7007 Z-2.5800
G01 X-50.0331 Y147.4106 Z-2.5793
G01 X-50.0670 Y147.2373 Z-2.5805
G01 X-50.1175 Y146.9435 Z-2.5808
G01 X-50.1420 Y146.7687 Z-2.5813
G01 X-50.1745 Y146.4723 Z-2.5824
G01 X-50.1896 Y146.2965 Z-2.5820
G01 X-50.2043 Y145.9988 Z-2.5835
G01 X-50.2099 Y145.8199 Z-2.5825
G01 X-50.2071 Y145.5208 Z-2.5844
G01 X-50.2025 Y145.3394 Z-2.5833
G01 X-50.1964 Y145.2398 Z-2.5835
G01 X-50.1826 Y145.0409 Z-2.5854
G01 X-50.1675 Y144.8601 Z-2.5847
G01 X-50.1564 Y144.7610 Z-2.5842
G01 X-50.1311 Y144.5632 Z-2.5865
G01 X-50.1055 Y144.3837 Z-2.5861
G01 X-50.0894 Y144.2853 Z-2.5851
G01 X-50.0530 Y144.0892 Z-2.5874
G01 X-50.0171 Y143.9115 Z-2.5872
G01 X-49.9959 Y143.8141 Z-2.5858
G01 X-49.9727 Y143.7171 Z-2.5864
G01 X-49.9488 Y143.6203 Z-2.5878
G01 X-49.9028 Y143.4450
G01 X-49.8761 Y143.3489 Z-2.5864
G01 X-49.8481 Y143.2532 Z-2.5863
G01 X-49.8187 Y143.1580 Z-2.5878
G01 X-49.7627 Y142.9856 Z-2.5880
G01 X-49.7305 Y142.8912 Z-2.5867
G01 X-49.6978 Y142.7970 Z-2.5860
G01 X-49.6632 Y142.7035 Z-2.5873
G01 X-49.5973 Y142.5346 Z-2.5877
G01 X-49.5221 Y142.3499 Z-2.5855
G01 X-49.4827 Y142.2583 Z-2.5865
G01 X-49.4053 Y142.0890 Z-2.5872
G01 X-49.3197 Y141.9083 Z-2.5852
G01 X-49.2756 Y141.8186 Z-2.5857
G01 X-49.1866 Y141.6495 Z-2.5870
G01 X-49.0912 Y141.4738 Z-2.5857
G01 X-49.0426 Y141.3865 Z-2.5860
G01 X-48.9445 Y141.2225 Z-2.5877
G01 X-48.7866 Y140.9676 Z-2.5873
G01 X-48.6800 Y140.8091 Z-2.5892
G01 X-48.5088 Y140.5629 Z-2.5890
G01 X-48.3943 Y140.4102 Z-2.5907
G01 X-48.2106 Y140.1732 Z-2.5904
G01 X-48.0885 Y140.0265 Z-2.5919
G01 X-47.8927 Y139.7993 Z-2.5915
G01 X-47.7634 Y139.6591 Z-2.5927
G01 X-47.5561 Y139.4424 Z-2.5922
G01 X-47.4199 Y139.3089 Z-2.5931
G01 X-47.2016 Y139.1033 Z-2.5927
G01 X-47.0572 Y138.9752 Z-2.5932
G01 X-46.8278 Y138.7806 Z-2.5930
G01 X-46.6754 Y138.6585 Z-2.5934
G01 X-46.4363 Y138.4759 Z-2.5935
G01 X-46.2780 Y138.3616 Z-2.5938
G01 X-46.0299 Y138.1916 Z-2.5941
G01 X-45.8662 Y138.0853 Z-2.5944
G01 X-45.6097 Y137.9280 Z-2.5949
G01 X-45.4410 Y137.8299
G01 X-45.1770 Y137.6857 Z-2.5953
G01 X-45.0036 Y137.5960 Z-2.5950
G01 X-44.7328 Y137.4652 Z-2.5954
G01 X-44.5552 Y137.3842 Z-2.5948
G01 X-44.2781 Y137.2671 Z-2.5951
G01 X-44.0968 Y137.1948 Z-2.5943
G01 X-43.8142 Y137.0918 Z-2.5946
G01 X-43.7331 Y137.0215 Z-2.5564
G01 X-43.6260 Y137.0273 Z-2.5937
G01 X-43.2423 Y136.9085 Z-2.5942
G01 X-43.1436 Y136.8819 Z-2.5933
G01 X-42.7546 Y136.7819 Z-2.5944
G01 X-42.6548 Y136.7600 Z-2.5936
G01 X-42.2613 Y136.6790 Z-2.5953
G01 X-42.1606 Y136.6620 Z-2.5946
G01 X-41.7637 Y136.5998 Z-2.5964
G01 X-41.6624 Y136.5876 Z-2.5958
G01 X-41.2630 Y136.5439 Z-2.5974
G01 X-41.1613 Y136.5366 Z-2.5968
G01 X-40.7604 Y136.5115 Z-2.5981
G01 X-40.6584 Y136.5090 Z-2.5975
G01 X-40.2567 Y136.5026 Z-2.5986
G01 X-40.1548 Y136.5049 Z-2.5981
G01 X-39.7533 Y136.5172 Z-2.5989
G01 X-39.6501 Y136.5244 Z-2.5984
G01 X-39.2487 Y136.5553 Z-2.5992
G01 X-38.7451 Y136.6168 Z-2.5996
G01 X-38.2449 Y136.7017 Z-2.6002
G01 X-37.7492 Y136.8093 Z-2.6008
G01 X-37.2588 Y136.9394 Z-2.6011
G01 X-36.7750 Y137.0916
G01 X-36.2985 Y137.2656 Z-2.6008
G01 X-35.9230 Y137.4217 Z-2.5997
G01 X-35.8304 Y137.4611 Z-2.6003
G01 X-35.4594 Y137.6350 Z-2.5991
G01 X-35.3686 Y137.6788 Z-2.5999
G01 X-35.0033 Y137.8700 Z-2.5989
G01 X-34.9147 Y137.9180 Z-2.6000
G01 X-34.5581 Y138.1251 Z-2.5992
G01 X-34.4718 Y138.1771 Z-2.6006
G01 X-34.1246 Y138.3995 Z-2.5997
G01 X-34.0407 Y138.4554 Z-2.6012
G01 X-33.7034 Y138.6925 Z-2.6001
G01 X-33.6221 Y138.7520 Z-2.6018
G01 X-33.2953 Y139.0034 Z-2.6006
G01 X-33.2167 Y139.0664 Z-2.6021
G01 X-32.9777 Y139.2663 Z-2.6004
G01 X-32.9012 Y139.3318 Z-2.6009
G01 X-32.8253 Y139.3981 Z-2.6024
G01 X-32.5951 Y139.6080 Z-2.6004
G01 X-32.5216 Y139.6769 Z-2.6011
G01 X-32.4486 Y139.7464 Z-2.6025
G01 X-32.2263 Y139.9671 Z-2.6004
G01 X-32.0858 Y140.1119 Z-2.6027
G01 X-31.8722 Y140.3429 Z-2.6007
G01 X-31.7381 Y140.4937 Z-2.6031
G01 X-31.5346 Y140.7336 Z-2.6013
G01 X-31.4069 Y140.8899 Z-2.6037
G01 X-31.2752 Y141.0582 Z-2.6019
G01 X-31.2139 Y141.1383 Z-2.6020
G01 X-31.0928 Y141.2998 Z-2.6042
G01 X-30.9681 Y141.4733 Z-2.6022
G01 X-30.7961 Y141.7223 Z-2.6045
G01 X-30.6788 Y141.9009 Z-2.6024
G01 X-30.5174 Y142.1570 Z-2.6046
G01 X-30.4078 Y142.3404 Z-2.6025
G01 X-30.2571 Y142.6029 Z-2.6046
G01 X-30.2030 Y142.7019 Z-2.6031
G01 X-30.1555 Y142.7909 Z-2.6026
G01 X-30.0158 Y143.0594 Z-2.6043
G01 X-29.9649 Y143.1622 Z-2.6027
G01 X-29.7926 Y143.5276 Z-2.6041
G01 X-29.7452 Y143.6342 Z-2.6026
G01 X-29.5881 Y144.0063 Z-2.6042
G01 X-29.5453 Y144.1149 Z-2.6030
G01 X-29.4032 Y144.4930 Z-2.6044
G01 X-29.3653 Y144.6034 Z-2.6037
G01 X-29.2381 Y144.9868 Z-2.6046
G01 X-29.0933 Y145.4868 Z-2.6048
G01 X-28.9688 Y145.9923 Z-2.6052
G01 X-28.8842 Y146.4033 Z-2.6045
G01 X-28.8650 Y146.5024 Z-2.6055
G01 X-28.7967 Y146.9164 Z-2.6044
G01 X-28.7818 Y147.0163 Z-2.6057
G01 X-28.7298 Y147.4341 Z-2.6045
G01 X-28.7191 Y147.5346 Z-2.6060
G01 X-28.6914 Y147.8543 Z-2.6045
G01 X-28.6838 Y147.9551 Z-2.6050
G01 X-28.6770 Y148.0559 Z-2.6063
G01 X-28.6617 Y148.3764 Z-2.6045
G01 X-28.6556 Y148.5785 Z-2.6066
G01 X-28.6529 Y148.8993 Z-2.6047
G01 X-28.6547 Y149.1015 Z-2.6068
G01 X-28.6610 Y149.3212 Z-2.6050
G01 X-28.6649 Y149.4222
G01 X-28.6745 Y149.6241 Z-2.6069
G01 X-28.6892 Y149.8434 Z-2.6048
G01 X-28.7149 Y150.1456 Z-2.6068
G01 X-28.7383 Y150.3641 Z-2.6047
G01 X-28.7757 Y150.6650 Z-2.6066
G01 X-28.7926 Y150.7825 Z-2.6052
G01 X-28.8080 Y150.8824 Z-2.6048
G01 X-28.8570 Y151.1817 Z-2.6063
G01 X-28.8787 Y151.3002 Z-2.6048
G01 X-28.9588 Y151.6968 Z-2.6061
G01 X-28.9856 Y151.8161 Z-2.6049
G01 X-29.0806 Y152.2094 Z-2.6060
G01 X-29.1125 Y152.3274 Z-2.6054
G01 X-29.2219 Y152.7170 Z-2.6060
G01 X-29.3825 Y153.2188 Z-2.6062
G01 X-29.5269 Y153.6192 Z-2.6057
G01 X-29.5623 Y153.7140 Z-2.6067
G01 X-29.7215 Y154.1088 Z-2.6057
G01 X-29.7608 Y154.2020 Z-2.6071
G01 X-29.9347 Y154.5905 Z-2.6061
G01 X-29.9775 Y154.6822 Z-2.6074
G01 X-30.1204 Y154.9736 Z-2.6057
G01 X-30.2123 Y155.1538 Z-2.6076
G01 X-30.3665 Y155.4406 Z-2.6058
G01 X-30.4653 Y155.6173 Z-2.6078
G01 X-30.5786 Y155.8118 Z-2.6061
G01 X-30.6306 Y155.8987 Z-2.6063
G01 X-30.7357 Y156.0718 Z-2.6080
G01 X-30.8561 Y156.2621 Z-2.6061
G01 X-31.0228 Y156.5160 Z-2.6081
G01 X-31.0926 Y156.6183 Z-2.6069
G01 X-31.1504 Y156.7015 Z-2.6065
G01 X-31.3262 Y156.9492 Z-2.6081
G01 X-31.3997 Y157.0489 Z-2.6068
G01 X-31.6455 Y157.3708 Z-2.6081
G01 X-31.7228 Y157.4676 Z-2.6070
G01 X-31.9801 Y157.7803 Z-2.6079
G01 X-32.0614 Y157.8738 Z-2.6073
G01 X-32.3298 Y158.1771 Z-2.6077
G01 X-32.6943 Y158.5603 Z-2.6079
G01 X-33.0006 Y158.8609 Z-2.6071
G01 X-33.0738 Y158.9309 Z-2.6082
G01 X-33.3915 Y159.2213 Z-2.6072
G01 X-33.4674 Y159.2885 Z-2.6084
G01 X-33.7175 Y159.5023 Z-2.6068
G01 X-33.8735 Y159.6316 Z-2.6086
G01 X-34.1311 Y159.8364 Z-2.6069
G01 X-34.2917 Y159.9599 Z-2.6088
G01 X-34.4746 Y160.0957 Z-2.6071
G01 X-34.7215 Y160.2729 Z-2.6089
G01 X-34.9092 Y160.4021 Z-2.6071
G01 X-35.1623 Y160.5703 Z-2.6090
G01 X-35.2687 Y160.6386 Z-2.6078
G01 X-35.3547 Y160.6922 Z-2.6076
G01 X-35.6134 Y160.8516 Z-2.6091
G01 X-35.7223 Y160.9159 Z-2.6079
G01 X-36.0743 Y161.1167 Z-2.6088
G01 X-36.2024 Y161.1862 Z-2.6080
G01 X-36.4903 Y161.3380 Z-2.6091
G01 X-36.6241 Y161.4058 Z-2.6080
G01 X-36.9168 Y161.5481 Z-2.6094
G01 X-37.0526 Y161.6117 Z-2.6082
G01 X-37.3498 Y161.7444 Z-2.6097
G01 X-37.4875 Y161.8036 Z-2.6085
G01 X-37.7887 Y161.9270 Z-2.6100
G01 X-37.9284 Y161.9816 Z-2.6089
G01 X-38.0297 Y162.0203 Z-2.6086
G01 X-38.2332 Y162.0955 Z-2.6103
G01 X-38.4770 Y162.1813 Z-2.6087
G01 X-38.6829 Y162.2499 Z-2.6105
G01 X-38.9292 Y162.3279 Z-2.6090
G01 X-39.1371 Y162.3899 Z-2.6107
G01 X-39.3859 Y162.4598 Z-2.6094
G01 X-39.4907 Y162.4881 Z-2.6097
G01 X-39.5956 Y162.5155 Z-2.6108
G01 X-39.9533 Y162.6031 Z-2.6096
G01 X-40.0591 Y162.6272 Z-2.6108
G01 X-40.4204 Y162.7040 Z-2.6096
G01 X-40.5269 Y162.7249 Z-2.6108
G01 X-40.8905 Y162.7905 Z-2.6097
G01 X-40.9975 Y162.8083 Z-2.6107
G01 X-41.3630 Y162.8625 Z-2.6098
G01 X-41.4705 Y162.8773 Z-2.6105
G01 X-41.9453 Y162.9319 Z-2.6103
G01 X-42.4216 Y162.9718 Z-2.6100
G01 X-42.8989 Y162.9970 Z-2.6099
G01 X-43.3767 Y163.0075
G01 X-43.8553 Y163.0035
G01 X-44.0087 Y162.9985 Z-2.6094
G01 X-44.3342 Y162.9850 Z-2.6098
G01 X-44.4874 Y162.9756 Z-2.6091
G01 X-44.8122 Y162.9521 Z-2.6098
G01 X-44.9651 Y162.9383 Z-2.6088
G01 X-45.2891 Y162.9047 Z-2.6098
G01 X-45.4415 Y162.8866 Z-2.6086
G01 X-45.7643 Y162.8430 Z-2.6098
G01 X-45.9161 Y162.8204 Z-2.6085
G01 X-46.2374 Y162.7670 Z-2.6098
G01 X-46.3885 Y162.7397 Z-2.6086
G01 X-46.7080 Y162.6767 Z-2.6099
G01 X-46.8582 Y162.6448 Z-2.6087
G01 X-46.9642 Y162.6212 Z-2.6085
G01 X-47.1757 Y162.5722 Z-2.6099
G01 X-47.4309 Y162.5091 Z-2.6084
G01 X-47.6410 Y162.4537 Z-2.6100
G01 X-47.8950 Y162.3828 Z-2.6085
G01 X-48.1033 Y162.3212 Z-2.6101
G01 X-48.3551 Y162.2428 Z-2.6086
G01 X-48.5615 Y162.1752 Z-2.6102
G01 X-48.8109 Y162.0893 Z-2.6089
G01 X-49.0153 Y162.0157 Z-2.6103
G01 X-49.2620 Y161.9225 Z-2.6092
G01 X-49.3632 Y161.8832 Z-2.6094
G01 X-49.4641 Y161.8431 Z-2.6104
G01 X-49.8080 Y161.7004 Z-2.6094
G01 X-49.9077 Y161.6573 Z-2.6105
G01 X-50.2473 Y161.5046 Z-2.6095
G01 X-50.3457 Y161.4585 Z-2.6106
G01 X-50.6806 Y161.2958 Z-2.6096
G01 X-50.7776 Y161.2470 Z-2.6107
G01 X-51.1740 Y161.0375 Z-2.6093
G01 X-51.3554 Y160.9377 Z-2.6118
G01 X-51.7334 Y160.7199 Z-2.6095
G01 X-51.9108 Y160.6132 Z-2.6121
G01 X-52.2802 Y160.3810 Z-2.6097
G01 X-52.4533 Y160.2676 Z-2.6123
G01 X-52.8134 Y160.0213 Z-2.6101
G01 X-52.9822 Y159.9015 Z-2.6124
G01 X-53.3324 Y159.6414 Z-2.6104
G01 X-53.4149 Y159.5788 Z-2.6110
G01 X-53.4967 Y159.5154 Z-2.6125
G01 X-53.9167 Y159.1764 Z-2.6109
G01 X-53.9960 Y159.1099 Z-2.6125
G01 X-54.4027 Y158.7550 Z-2.6109
G01 X-54.4794 Y158.6855 Z-2.6123
G01 X-54.8720 Y158.3151 Z-2.6109
G01 X-54.9462 Y158.2429 Z-2.6122
G01 X-55.3241 Y157.8575 Z-2.6110
G01 X-55.3957 Y157.7828 Z-2.6119
G01 X-55.8272 Y157.3058 Z-2.6116
G01 X-56.2401 Y156.8125 Z-2.6113
G01 X-56.6337 Y156.3036 Z-2.6110
G01 X-57.0088 Y155.7784 Z-2.6112
G01 X-57.3653 Y155.2381 Z-2.6116
G01 X-57.4335 Y155.1278 Z-2.6111
G01 X-57.7017 Y154.6851 Z-2.6121
G01 X-57.7661 Y154.5725 Z-2.6113
G01 X-58.0178 Y154.1202 Z-2.6124
G01 X-58.0782 Y154.0055 Z-2.6114
G01 X-58.3130 Y153.5441 Z-2.6127
G01 X-58.3693 Y153.4274 Z-2.6115
G01 X-58.5869 Y152.9577 Z-2.6129
G01 X-58.6391 Y152.8390 Z-2.6115
G01 X-58.8392 Y152.3616 Z-2.6131
G01 X-58.8872 Y152.2412 Z-2.6116
G01 X-59.0696 Y151.7568 Z-2.6133
G01 X-59.1131 Y151.6347 Z-2.6116
G01 X-59.2777 Y151.1439 Z-2.6133
G01 X-59.3168 Y151.0203 Z-2.6117
G01 X-59.3466 Y150.9211 Z-2.6115
G01 X-59.4633 Y150.5238 Z-2.6133
G01 X-59.4977 Y150.3988 Z-2.6118
G01 X-59.5242 Y150.2988 Z-2.6113
G01 X-59.6261 Y149.8974 Z-2.6133
G01 X-59.6559 Y149.7712 Z-2.6118
G01 X-59.6789 Y149.6703 Z-2.6110
G01 X-59.7659 Y149.2654 Z-2.6132
G01 X-59.8107 Y149.0355 Z-2.6108
G01 X-59.8829 Y148.6274 Z-2.6132
G01 X-59.9196 Y148.3952 Z-2.6108
G01 X-59.9769 Y147.9847 Z-2.6133
G01 X-60.0054 Y147.7513 Z-2.6110
G01 X-60.0480 Y147.3391 Z-2.6135
G01 X-60.0680 Y147.1048 Z-2.6111
G01 X-60.0959 Y146.6913 Z-2.6135
G01 X-60.1075 Y146.4565 Z-2.6112
G01 X-60.1206 Y146.0423 Z-2.6136
G01 X-60.1238 Y145.8072 Z-2.6113
G01 X-60.1240 Y145.7036 Z-2.6112
G01 X-60.1222 Y145.3927 Z-2.6135
G01 X-60.1169 Y145.1577 Z-2.6113
G01 X-60.1136 Y145.0541 Z-2.6111
G01 X-60.1006 Y144.7436 Z-2.6135
G01 X-60.0800 Y144.4055 Z-2.6108
G01 X-60.0558 Y144.0956 Z-2.6133
G01 X-60.0233 Y143.7584 Z-2.6106
G01 X-59.9879 Y143.4496 Z-2.6131
G01 X-59.9434 Y143.1138 Z-2.6104
G01 X-59.8970 Y142.8065 Z-2.6129
G01 X-59.8405 Y142.4724 Z-2.6101
G01 X-59.7832 Y142.1670 Z-2.6126
G01 X-59.7147 Y141.8352 Z-2.6098
G01 X-59.6466 Y141.5319 Z-2.6123
G01 X-59.5660 Y141.2012 Z-2.6097
G01 X-59.4872 Y140.9004 Z-2.6121
G01 X-59.3945 Y140.5712 Z-2.6099
G01 X-59.3653 Y140.4717 Z-2.6102
G01 X-59.3055 Y140.2733 Z-2.6124
G01 X-59.2014 Y139.9475 Z-2.6103
G01 X-59.1688 Y139.8491 Z-2.6106
G01 X-59.1022 Y139.6529 Z-2.6128
G01 X-58.9870 Y139.3308 Z-2.6107
G01 X-58.9512 Y139.2336 Z-2.6109
G01 X-58.8779 Y139.0397 Z-2.6131
G01 X-58.7126 Y138.6259 Z-2.6111
G01 X-58.6326 Y138.4347 Z-2.6133
G01 X-58.4534 Y138.0267 Z-2.6113
G01 X-58.3669 Y137.8383 Z-2.6136
G01 X-58.1738 Y137.4367 Z-2.6115
G01 X-58.0809 Y137.2515 Z-2.6138
G01 X-57.8742 Y136.8567 Z-2.6116
G01 X-57.7749 Y136.6747 Z-2.6139
G01 X-57.5548 Y136.2873 Z-2.6117
G01 X-57.4495 Y136.1088 Z-2.6140
G01 X-57.2162 Y135.7291 Z-2.6118
G01 X-57.1048 Y135.5544 Z-2.6140
G01 X-56.8587 Y135.1829 Z-2.6118
G01 X-56.7414 Y135.0121 Z-2.6140
G01 X-56.4827 Y134.6492 Z-2.6118
G01 X-56.3596 Y134.4825 Z-2.6140
G01 X-56.0881 Y134.1279 Z-2.6118
G01 X-55.9593 Y133.9654 Z-2.6140
G01 X-55.6755 Y133.6197 Z-2.6120
G01 X-55.5413 Y133.4616 Z-2.6142
G01 X-55.2460 Y133.1257 Z-2.6123
G01 X-55.1066 Y132.9722 Z-2.6144
G01 X-54.8001 Y132.6465 Z-2.6125
G01 X-54.6556 Y132.4977 Z-2.6145
G01 X-54.3384 Y132.1824 Z-2.6126
G01 X-54.1890 Y132.0385 Z-2.6146
G01 X-53.8613 Y131.7342 Z-2.6127
G01 X-53.7073 Y131.5953 Z-2.6147
G01 X-53.3695 Y131.3022 Z-2.6128
G01 X-53.2109 Y131.1686 Z-2.6147
G01 X-52.8635 Y130.8870 Z-2.6128
G01 X-52.7005 Y130.7587 Z-2.6146
G01 X-52.3438 Y130.4890 Z-2.6127
G01 X-52.2604 Y130.4273 Z-2.6132
G01 X-52.1766 Y130.3662 Z-2.6145
G01 X-51.8110 Y130.1086 Z-2.6126
G01 X-51.7257 Y130.0498 Z-2.6130
G01 X-51.6399 Y129.9915 Z-2.6143
G01 X-51.2658 Y129.7464 Z-2.6124
G01 X-51.1785 Y129.6904 Z-2.6128
G01 X-51.0908 Y129.6351 Z-2.6141
G01 X-50.7087 Y129.4027 Z-2.6122
G01 X-50.6196 Y129.3496 Z-2.6125
G01 X-50.5301 Y129.2972 Z-2.6138
G01 X-50.0484 Y129.0268 Z-2.6124
G01 X-49.9572 Y128.9775 Z-2.6136
G01 X-49.4656 Y128.7225 Z-2.6126
G01 X-49.3728 Y128.6762 Z-2.6139
G01 X-48.8732 Y128.4374 Z-2.6130
G01 X-48.7790 Y128.3941 Z-2.6143
G01 X-48.2719 Y128.1716 Z-2.6133
G01 X-48.1763 Y128.1313 Z-2.6146
G01 X-47.7589 Y127.9632 Z-2.6132
G01 X-47.6624 Y127.9253 Z-2.6136
G01 X-47.5655 Y127.8881 Z-2.6149
G01 X-47.1429 Y127.7335 Z-2.6134
G01 X-47.0452 Y127.6988 Z-2.6138
G01 X-46.9472 Y127.6648 Z-2.6151
G01 X-46.5198 Y127.5239 Z-2.6135
G01 X-46.4211 Y127.4923 Z-2.6139
G01 X-46.3220 Y127.4615 Z-2.6152
G01 X-45.8903 Y127.3344 Z-2.6136
G01 X-45.7906 Y127.3061 Z-2.6140
G01 X-45.6906 Y127.2785 Z-2.6152
G01 X-45.2550 Y127.1654 Z-2.6136
G01 X-45.1544 Y127.1403 Z-2.6140
G01 X-45.0536 Y127.1160 Z-2.6153
G01 X-44.6146 Y127.0170 Z-2.6135
G01 X-44.5132 Y126.9952 Z-2.6140
G01 X-44.4117 Y126.9741 Z-2.6152
G01 X-43.9697 Y126.8893 Z-2.6134
G01 X-43.8677 Y126.8708 Z-2.6139
G01 X-43.7655 Y126.8530 Z-2.6151
G01 X-43.3211 Y126.7825 Z-2.6132
G01 X-43.2185 Y126.7673 Z-2.6137
G01 X-43.1158 Y126.7528 Z-2.6149
G01 X-42.6685 Y126.6965 Z-2.6130
G01 X-42.4623 Y126.6734 Z-2.6147
G01 X-42.0128 Y126.6314 Z-2.6129
G01 X-41.8059 Y126.6150 Z-2.6147
G01 X-41.3553 Y126.5873 Z-2.6129
G01 X-41.1480 Y126.5775 Z-2.6147
G01 X-40.6968 Y126.5641 Z-2.6129
