(Projekt cncPathPreview_TestCAD)
(Erstellt mit Estlcam Version 11 Build 11,245)
(Laufzeit ca. 00:00:20 Stunden)

(Benoetigte Werkzeuge:)
(1:MyTool)

G90

MSG "Werkzeug: #1 MyTool"
T1 M06
M03 S30000
G00 Z5.0000


(Nr. 1: Gravur 1)
G00 X-50.0000 Y-50.0000
G00 Z0.5000
G01 Z0.0000 F750 S30000
G01 Y-44.3287 Z-0.5000
G01 Y-50.0000 Z-1.0000
G01 Y40.0000 F1500
G02 X-33.8449 Y47.8813 I10.0000 J0.0000
G03 X-26.9527 Y45.7899 I6.1551 J7.8813
G01 X30.0000 Y50.0000
G01 X43.9443 Y22.1115
G02 X45.0000 Y17.6393 I-8.9443 J-4.4721
G01 Y-38.2918
G03 X46.4286 Y-40.2084 I2.0000 J0.0000
G02 X43.3926 Y-49.7346 I-1.4286 J-4.7916
G02 X40.1679 Y-46.3071 I1.6241 J4.7586
G03 X38.2918 Y-45.0000 I-1.8761 J-0.6929
G01 X36.5090
G03 X34.5370 Y-46.6667 I0.0000 J-2.0000
G02 X30.5929 Y-50.0000 I-3.9441 J0.6667
G01 X-50.0000
G00 Z5.0000

M05
G28
M30
